!!!!SEGMENT: pl-cz--d-ii-40--002_elsner-jozef--requiem-in-c-op-42-dies-irae.krn
!!!cenid: 18xx:31
!!!COM: Elsner, Józef
!!!COM-rismID: pe30000957
!!!CDT: 1769/06/01-1854/04/18
!!!CNT: Polish
!!!OPR: Requiem in C op. 42
!!!OTL: Dies irae
!!!OMV: 002
!!!PDT:
!!!AGN: Sacred; Requiem
!!!SMS-siglum: PL-CZ
!!!SMS-shelfmark: D II-40
!!!SMS-shelfwork: 001-002 M
!!!NIFC-rismSourceID: 300000265
!!!NIFC-rismChildID: 300000265
!!!NIFC-islandoraID: pl-cz:35407
!!!URL-pdf-islandora: https://repozytorium.nifc.pl/islandora/object/pl-cz%3A35407/datastream/PDF/view
!!!URL-scan: https://polish.musicsources.pl/pl/lokalizacje/galeria/rekopisy/6855/1 @EN{Scan on Polish Music Sources Website} @PL{Skany w portalu Dziedzictwo Muzyki Polskiej w otwartym dostępie}
!!!ONB-nifc:
!!!AIN: 1 bass 2 cello 1 cor 4 empty 2 fagot 2 tenor 1 timpa 1 tromt
!!!key:
**kern	**dynam	**kern	**dynam	**kern	**kern	**dynam	**kern	**dynam	**kern	**dynam	**kern	**dynam	**kern	**dynam	**kern	**dynam	**kern	**text	**dynam	**kern	**text	**dynam	**kern	**text	**dynam
*part12	*part12	*part11	*part11	*part10	*part9	*part9	*part8	*part8	*part7	*part7	*part6	*part6	*part5	*part5	*part4	*part4	*part3	*part3	*part3	*part2	*part2	*part2	*part1	*part1	*part1
*staff12	*	*staff11	*	*staff10	*staff9	*	*staff8	*	*staff7	*	*staff6	*	*staff5	*	*staff4	*	*staff3	*staff3	*	*staff2	*staff2	*	*staff1	*staff1	*
*Iempty	*	*Itimpa	*	*Iempty	*Icor	*	*Iempty	*	*Itromt	*	*Iempty	*	*Icello&Ifagot	*	*Icello&Ifagot	*	*Ibass	*	*	*Itenor	*	*	*Itenor	*	*
*I"Bassi	*	*I"Timpani in Es. C. G.	*	*I"Clarin. in C.	*I"Corni. in F.	*	*I"3.	*	*I"Tromboni. 2.	*	*I"1.	*	*I"Violoncello. 2o. con . Fagotto.	*	*I"Violoncello. 1.o con Fagotto.	*	*I"Basso	*	*	*I"Tenore II	*	*	*I"Tenore I	*	*
*I'Cb	*	*I'Timp	*	*I'Clni	*I'Cor	*	*I'Tbn III	*	*I'Tbn II	*	*I'Tbn I	*	*I'Vc II con Fg	*	*I'Vc I con. Fg	*	*I'B	*	*	*	*	*	*I'T I	*	*
*clefF4	*	*clefF4	*	*clefG2	*clefG2	*	*clefF4	*	*clefC4	*	*clefC4	*	*clefF4	*	*clefC4	*	*clefF4	*	*	*clefC4	*	*	*clefC4	*	*
*	*	*	*	*	*ITrd4c7	*	*	*	*	*	*	*	*	*	*	*	*	*	*	*	*	*	*	*	*
*k[b-e-a-]	*	*k[]	*	*k[]	*k[b-]	*	*k[b-e-a-]	*	*k[b-e-a-]	*	*k[b-e-a-]	*	*k[b-e-a-]	*	*k[b-e-a-]	*	*k[b-e-a-]	*	*	*k[b-e-a-]	*	*	*k[b-e-a-]	*	*
*c:	*	*	*	*	*	*	*c:	*	*c:	*	*c:	*	*c:	*	*c:	*	*c:	*	*	*c:	*	*	*c:	*	*
*M3/4	*	*M3/4	*	*M3/4	*M3/4	*	*M3/4	*	*M3/4	*	*M3/4	*	*M3/4	*	*M3/4	*	*M3/4	*	*	*M3/4	*	*	*M3/4	*	*
=1	=1	=1	=1	=1	=1	=1	=1	=1	=1	=1	=1	=1	=1	=1	=1	=1	=1	=1	=1	=1	=1	=1	=1	=1	=1
!	!LO:DY:b	!	!	!	!	!	!LO:N:vis=4	!	!	!	!	!LO:DY:b	!	!	!	!	!	!	!	!	!	!	!LO:TX:a:t=Allegro moderato	!	!LO:DY:rj
4.c\	ff	4C/	.	4c/	4.c/	.	4.C/	.	4.c\	.	4.c\	ff	4.c\	.	4.c\	.	4.c\	Die-	.	4.c\	Die-	.	4.c\	Die-	ff
.	.	4r	.	4r	.	.	.	.	.	.	.	.	.	.	.	.	.	.	.	.	.	.	.	.	.
!LO:SIC:v:s=8B	!	!	!	!	!	!	!	!	!	!	!	!	!	!	!	!	!	!	!	!	!	!	!	!	!
8B-\	.	.	.	.	8BX/	.	8BBn/	.	8Bn\	.	8Bn\	.	8Bn\	.	8Bn\	.	8Bn\	-es	.	8Bn\	-es	.	8Bn\	-es	.
8.c\L	.	4r	.	4r	8.c/L	.	8.C/L	.	8.c\L	.	8.c\L	.	8.c\L	.	8.c\L	.	8.c\	i-	.	8.c\	i-	.	8.c\	i-	.
!LO:SIC:v:s=16B	!	!	!	!	!	!	!	!	!	!	!	!	!	!	!	!	!	!	!	!	!	!	!	!	!
16B-\Jk	.	.	.	.	16B/Jk	.	16BB/Jk	.	16B\Jk	.	16B\Jk	.	16B\Jk	.	16B\Jk	.	16B\	-rae,	.	16B\	-rae,	.	16B\	-rae,	.
=2	=2	=2	=2	=2	=2	=2	=2	=2	=2	=2	=2	=2	=2	=2	=2	=2	=2	=2	=2	=2	=2	=2	=2	=2	=2
2c\	.	2.r	.	2.r	2c/	.	2C/	.	2c\	.	2c\	.	2c\	.	2c\	.	2c\	die-	.	2c\	die-	.	2c\	die-	.
4A-\	.	.	.	.	4r	.	4AA-/	.	4A-\	.	4A-\	.	4A-\	.	4A-\	.	4A-\	-es	.	4A-\	-es	.	4A-\	-es	.
=3	=3	=3	=3	=3	=3	=3	=3	=3	=3	=3	=3	=3	=3	=3	=3	=3	=3	=3	=3	=3	=3	=3	=3	=3	=3
8.G\L	.	4r	.	2.r	2.r	.	8.GG/L	.	8.G/L	.	8.G/L	.	8.G\L	.	8.G/L	.	8.G\L	il-	.	8.G/L	il-	.	8.G/L	il-	.
16A-\Jk	.	.	.	.	.	.	16AA-/Jk	.	16A-\Jk	.	16A-\Jk	.	16A-\Jk	.	16A-\Jk	.	16A-\Jk	.	.	16A-\Jk	.	.	16A-\Jk	.	.
4G\	.	8r	.	.	.	.	4GG/	.	4G/	.	4G/	.	4G\	.	4G/	.	4G\	-la,	.	4G/	-la,	.	4G/	-la,	.
.	.	16r	.	.	.	.	.	.	.	.	.	.	.	.	.	.	.	.	.	.	.	.	.	.	.
.	.	16GG/KL	.	.	.	.	.	.	.	.	.	.	.	.	.	.	.	.	.	.	.	.	.	.	.
4r	.	8.GG/	.	.	.	.	4r	.	4r	.	4r	.	4r	.	4r	.	4r	.	.	4r	.	.	4r	.	.
.	.	16GG/Jk	.	.	.	.	.	.	.	.	.	.	.	.	.	.	.	.	.	.	.	.	.	.	.
=4	=4	=4	=4	=4	=4	=4	=4	=4	=4	=4	=4	=4	=4	=4	=4	=4	=4	=4	=4	=4	=4	=4	=4	=4	=4
*	*	*tremolo	*	*	*	*	*	*	*	*	*	*	*	*	*	*	*	*	*	*	*	*	*	*	*
2G\^	.	16GG/LL	.	[2.G/^> [2.g/	2.r	.	2G\	.	2.Bn\	.	(>2.d\^	.	2Bn\	.	2d\^	.	2G\	sol-	.	2Bn\	sol-	.	2d\^	sol-	.
.	.	16GG/	.	.	.	.	.	.	.	.	.	.	.	.	.	.	.	.	.	.	.	.	.	.	.
.	.	16GG/	.	.	.	.	.	.	.	.	.	.	.	.	.	.	.	.	.	.	.	.	.	.	.
.	.	16GG/	.	.	.	.	.	.	.	.	.	.	.	.	.	.	.	.	.	.	.	.	.	.	.
.	.	16GG/	.	.	.	.	.	.	.	.	.	.	.	.	.	.	.	.	.	.	.	.	.	.	.
.	.	16GG/	.	.	.	.	.	.	.	.	.	.	.	.	.	.	.	.	.	.	.	.	.	.	.
.	.	16GG/	.	.	.	.	.	.	.	.	.	.	.	.	.	.	.	.	.	.	.	.	.	.	.
.	.	16GG/JJ	.	.	.	.	.	.	.	.	.	.	.	.	.	.	.	.	.	.	.	.	.	.	.
4F\	.	8GG/	.	.	.	.	4F\	.	.	.	.	.	4B\	.	4d\	.	4F\	-vet	.	4B\	-vet	.	4d\	-vet	.
.	.	8r	.	.	.	.	.	.	.	.	.	.	.	.	.	.	.	.	.	.	.	.	.	.	.
=5	=5	=5	=5	=5	=5	=5	=5	=5	=5	=5	=5	=5	=5	=5	=5	=5	=5	=5	=5	=5	=5	=5	=5	=5	=5
*	*	*	*	*	*	*	*	*	*	*	*	*	*	*	*	*	*^	*	*	*	*	*	*	*	*
4.E-\	.	2.r	.	4G/] 4g/]	2.r	.	4E-\	.	4c\	.	4c\)	.	4.c\	.	4.c\	.	4.E-/	4.E-\	sæ-	.	4.c\	sæ-	.	4.c\	sæ-	.
.	.	.	.	4r	.	.	4r	.	4r	.	4r	.	.	.	.	.	.	.	.	.	.	.	.	.	.	.
8BBn/L	>	.	.	.	.	.	.	.	.	.	.	.	8G\	.	8d\L	.	8BBn/	8ryy	-clum	.	8G/	-clum	.	8d\	-clum	>
!	!	!	!	!	!	!	!	!	!	!	!	!	!	!	!	!LO:HP:b	!	!	!	!	!	!	!	!	!	!
8C/	.	.	.	4r	.	.	4r	.	4r	.	4r	.	[4G\	.	8e-\	>	8C/	4ryy	in	.	8G/	in	.	8e-\	in	.
8E-\J	]]	.	.	.	.	.	.	.	.	.	.	.	.	.	8c\J	.	8E-/	.	fa-	.	8G/	fa-	.	8c\	fa-	]]
*	*	*	*	*	*	*	*	*	*	*	*	*	*	*	*	*	*v	*v	*	*	*	*	*	*	*	*
=6	=6	=6	=6	=6	=6	=6	=6	=6	=6	=6	=6	=6	=6	=6	=6	=6	=6	=6	=6	=6	=6	=6	=6	=6	=6
2G\	]	2.r	.	2.r	2.r	.	2.r	.	2.r	.	2.r	.	2G\]	.	2G/	]	2G\	-vil-	.	2G/	-vil-	.	2G/	-vil-	]
8.F#X\L	.	.	.	.	.	.	.	.	.	.	.	.	8.F#X\L	.	8.F#X/L	.	8.F#X\L	.	.	8.F#X/L	.	.	8.F#X/L	.	.
16G\Jk	.	.	.	.	.	.	.	.	.	.	.	.	16G\Jk	.	16G/Jk	.	16G\Jk	.	.	[16G/Jk	.	.	[16G/Jk	.	.
=7	=7	=7	=7	=7	=7	=7	=7	=7	=7	=7	=7	=7	=7	=7	=7	=7	=7	=7	=7	=7	=7	=7	=7	=7	=7
2G\	.	2.r	.	2.r	2.r	.	2.r	.	2.r	.	2.r	.	2G\	.	2G/	.	2G\	-la	.	2G/]	-la	.	2G/]	-la	.
8.Fn\L	sf	.	.	.	.	.	.	.	.	.	.	.	8.A-\L	.	8.d\L	sf	8.Fn\	Te-	.	8.A-\	Te-	.	8.d\	Te-	sf
16F\Jk	.	.	.	.	.	.	.	.	.	.	.	.	16A-\Jk	.	16d\Jk	.	16F\	-ste	.	16A-\	-ste	.	(>16d\	-ste	.
=8	=8	=8	=8	=8	=8	=8	=8	=8	=8	=8	=8	=8	=8	=8	=8	=8	=8	=8	=8	=8	=8	=8	=8	=8	=8
4E-\	.	2.r	.	2.r	2.r	.	2.r	.	2.r	.	2.r	.	4G\	.	8.e-\L	.	4E-\	Da-	.	4G/	Da-	.	8.e-\L	Da-	.
.	.	.	.	.	.	.	.	.	.	.	.	.	.	.	16B-\Jk	.	.	.	.	.	.	.	16B-\Jk	.	.
4E-\	.	.	.	.	.	.	.	.	.	.	.	.	4G\	.	4B-\	.	4E-\	-vid	.	4G/	-vid	.	4B-\)	-vid	.
8.D\L	sf	.	.	.	.	.	.	.	.	.	.	.	8.F\L	.	8.Bn\L	sf	8.D/	cum	.	8.F/	cum	.	8.Bn\	cum	sf
16D\Jk	.	.	.	.	.	.	.	.	.	.	.	.	16F\Jk	.	16B\Jk	.	16D/	Sy-	.	16F/	Sy-	.	16B\	Sy-	.
=9	=9	=9	=9	=9	=9	=9	=9	=9	=9	=9	=9	=9	=9	=9	=9	=9	=9	=9	=9	=9	=9	=9	=9	=9	=9
4C/	.	2.r	.	2.r	2.r	.	2.r	.	2.r	.	2.r	.	4E-\	.	8c\L	.	4C/	-bil-	.	4E-/	-bil-	.	8c\L	-bil-	.
.	.	.	.	.	.	.	.	.	.	.	.	.	.	.	8G/J	.	.	.	.	.	.	.	8G/J	.	.
4C/	.	.	.	.	.	.	.	.	.	.	.	.	4E-\	.	4G/	.	4C/	-la	.	4E-/	-la	.	4G/	-la	.
4r	.	.	.	.	.	.	.	.	.	.	.	.	4r	.	4r	.	4r	.	.	4r	.	.	4r	.	.
=10	=10	=10	=10	=10	=10	=10	=10	=10	=10	=10	=10	=10	=10	=10	=10	=10	=10	=10	=10	=10	=10	=10	=10	=10	=10
!!pagebreak:original
*	*	*Xtremolo	*	*	*	*	*	*	*	*	*	*	*	*	*	*	*	*	*	*	*	*	*	*	*
4.E-\	pp	16E-X\LL	p	2.r	2.r	.	2.r	.	2.r	.	2.r	.	2.r	.	2.r	.	4.E-\	Quan-	p	2.r	.	.	2.r	.	.
.	.	16E-\	.	.	.	.	.	.	.	.	.	.	.	.	.	.	.	.	.	.	.	.	.	.	.
.	.	16E-\	.	.	.	.	.	.	.	.	.	.	.	.	.	.	.	.	.	.	.	.	.	.	.
.	.	16E-\JJ	.	.	.	.	.	.	.	.	.	.	.	.	.	.	.	.	.	.	.	.	.	.	.
.	.	8E-\	.	.	.	.	.	.	.	.	.	.	.	.	.	.	.	.	.	.	.	.	.	.	.
8D\	.	8r	.	.	.	.	.	.	.	.	.	.	.	.	.	.	8D\	-tus	.	.	.	.	.	.	.
8.E-\L	.	4r	.	.	.	.	.	.	.	.	.	.	.	.	.	.	8.E-\	tre-	.	.	.	.	.	.	.
16D\Jk	.	.	.	.	.	.	.	.	.	.	.	.	.	.	.	.	16D\	-mor	.	.	.	.	.	.	.
=11	=11	=11	=11	=11	=11	=11	=11	=11	=11	=11	=11	=11	=11	=11	=11	=11	=11	=11	=11	=11	=11	=11	=11	=11	=11
!LO:LB:g=original	!	!LO:LB:g=original	!	!LO:LB:g=original	!LO:LB:g=original	!	!LO:LB:g=original	!	!LO:LB:g=original	!	!LO:LB:g=original	!	!LO:LB:g=original	!	!LO:LB:g=original	!	!LO:LB:g=original	!	!	!LO:LB:g=original	!	!	!LO:LB:g=original	!	!
*	*^	*	*	*	*	*	*	*	*	*	*	*	*	*	*	*	*	*	*	*	*	*	*	*	*
4.E-\	<	.	16E\LL	.	2.r	2.r	.	2.r	.	2.r	.	2.r	.	4.G-X\	.	4r	<	4.E-\	Quan-	.	4.G-X/	Quan-	.	4r	.	.
.	.	.	16E\	.	.	.	.	.	.	.	.	.	.	.	.	.	.	.	.	.	.	.	.	.	.	.
.	.	.	16E\	.	.	.	.	.	.	.	.	.	.	.	.	.	.	.	.	.	.	.	.	.	.	.
.	.	.	16E\JJ	.	.	.	.	.	.	.	.	.	.	.	.	.	.	.	.	.	.	.	.	.	.	.
.	.	.	8E\	.	.	.	.	.	.	.	.	.	.	.	.	4r	.	.	.	.	.	.	.	4r	.	.
8D\	.	.	8r	.	.	.	.	.	.	.	.	.	.	8F\	.	.	.	8D\	-tus	.	8F/	-tus	.	.	.	.
8.E-\L	.	ff	4r	.	.	.	.	.	.	.	.	.	.	8.G-\L	.	8.c-X\L	[	8.E-\	tre-	.	8.G-/	tre-	.	8.c-X\	Quan-	<
16D\Jk	[[	.	.	.	.	.	.	.	.	.	.	.	.	16F\Jk	.	16c-\Jk	f	16D\	-mor	.	16F/	-mor	.	16c-\	-tus	[[
*	*v	*v	*	*	*	*	*	*	*	*	*	*	*	*	*	*	*	*	*	*	*	*	*	*	*	*
=12	=12	=12	=12	=12	=12	=12	=12	=12	=12	=12	=12	=12	=12	=12	=12	=12	=12	=12	=12	=12	=12	=12	=12	=12	=12
*	*	*tremolo	*	*	*	*	*	*	*	*	*	*	*	*	*	*	*	*	*	*	*	*	*	*	*
2E-\	.	16E\LL	ff	2.r	2.r	.	[2.E-\	.	[2.G-X/	.	2c-X\	.	2G-X\	.	4.c-X\	.	2E-\	est	f	2G-X/	est	.	4.c-X\	tre-	f
.	.	16E\	.	.	.	.	.	.	.	.	.	.	.	.	.	.	.	.	.	.	.	.	.	.	.
.	.	16E\	.	.	.	.	.	.	.	.	.	.	.	.	.	.	.	.	.	.	.	.	.	.	.
.	.	16E\	.	.	.	.	.	.	.	.	.	.	.	.	.	.	.	.	.	.	.	.	.	.	.
.	.	16E\	.	.	.	.	.	.	.	.	.	.	.	.	.	.	.	.	.	.	.	.	.	.	.
.	.	16E\	.	.	.	.	.	.	.	.	.	.	.	.	.	.	.	.	.	.	.	.	.	.	.
.	.	16E\	.	.	.	.	.	.	.	.	.	.	.	.	8c-\L	.	.	.	.	.	.	.	8c-\	-mor	.
.	.	16E\JJ	.	.	.	.	.	.	.	.	.	.	.	.	.	.	.	.	.	.	.	.	.	.	.
4E-\	.	8E\	.	.	.	.	.	.	.	.	8.c-\L	.	[4G-\	.	8.c-\	.	4E-\	fu-	.	4G-/	fu-	.	8.c-\	est	.
.	.	8r	.	.	.	.	.	.	.	.	.	.	.	.	.	.	.	.	.	.	.	.	.	.	.
.	.	.	.	.	.	.	.	.	.	.	16B-\Jk	.	.	.	16B-\Jk	.	.	.	.	.	.	.	16B-\	fu-	.
=13	=13	=13	=13	=13	=13	=13	=13	=13	=13	=13	=13	=13	=13	=13	=13	=13	=13	=13	=13	=13	=13	=13	=13	=13	=13
4E-\	.	2.r	.	4r	2.r	.	4E-\]	.	4G-/]	.	4An\	.	4G-X\]	.	4An/	.	4E-\	-tu-	.	4G-X/	-tu-	.	4An\	-tu-	.
4D-X\	.	.	.	4r	.	.	4D-X\	.	4F/	.	4B-\	.	4F\	.	4B-\	.	4D-X\	-rus	.	4F/	-rus	.	4B-\	-rus	.
*	*	*	*	*^	*	*	*	*	*	*	*	*	*	*	*	*	*	*	*	*	*	*	*	*	*
8.BB-/L	.	.	.	8.b-X/L	8.b-\L	.	.	4r	.	4r	.	4r	.	8.B-\L	.	8.B-\L	ff	8.BB-/	Quan-	.	8.B-\	Quan-	.	8.B-\	Quan-	ff
16BB-/Jk	.	.	.	16b-/Jk	16b-\Jk	.	.	.	.	.	.	.	.	16B-\Jk	.	16c\Jk	.	16BB-/	-do	.	16B-\	-do	.	16B-\	-do	.
=14	=14	=14	=14	=14	=14	=14	=14	=14	=14	=14	=14	=14	=14	=14	=14	=14	=14	=14	=14	=14	=14	=14	=14	=14	=14	=14
4.B-\	.	2.r	.	2.b-X/	2.b-X\	2.r	.	2.BB-/	.	2.B-\	.	2.B-\	.	4.B-\	.	4.B-\	.	4.B-\	ju-	.	4.B-\	ju-	.	4.B-\	ju-	.
8B-\L	.	.	.	.	.	.	.	.	.	.	.	.	.	8B-\L	.	8B-\L	.	8B-\	-dex	.	8B-\	-dex	.	8B-\	-dex	.
8.B-\	.	.	.	.	.	.	.	.	.	.	.	.	.	8.B-\	.	8.B-\	.	8.B-\	est	.	8.B-\	est	.	8.B-\	est	.
.	.	.	.	.	.	.	.	.	.	.	.	.	.	.	.	.	.	.	.	.	.	ven-	.	.	.	.
16B-\Jk	.	.	.	.	.	.	.	.	.	.	.	.	.	16B-\Jk	.	16B-\Jk	.	16B-\	ven-	.	16B-\	.	.	16B-\	ven-	.
*	*	*	*	*v	*v	*	*	*	*	*	*	*	*	*	*	*	*	*	*	*	*	*	*	*	*	*
=15	=15	=15	=15	=15	=15	=15	=15	=15	=15	=15	=15	=15	=15	=15	=15	=15	=15	=15	=15	=15	=15	=15	=15	=15	=15
(>2.d-X\	.	2.r	.	2.r	2.r	.	2.D-X/	.	(>2.d-X\	.	(>2.d-X\	.	(>2.d-X\	.	(>2.d-X\	.	2.d-X\	-tu-	.	2.d-X\	-tu-	.	2.d-X\	-tu-	.
=16	=16	=16	=16	=16	=16	=16	=16	=16	=16	=16	=16	=16	=16	=16	=16	=16	=16	=16	=16	=16	=16	=16	=16	=16	=16
2G-X\)	.	2.r	.	2.r	2.r	.	2.GG-X/	.	2G-X/)	.	2G-X/)	.	2G-X\)	.	2G-X/)	.	2G-X\	-rus,	.	2G-X/	-rus,	.	2G-X/	-rus,	.
!	!	!	!	!	!	!	!	!	!	!	!	!	!	!	!	!	!	!	!	!	!	!	!LO:TX:a:i:t=dolce	!	!
.	.	.	.	.	.	.	.	.	.	.	.	.	.	p	.	.	.	.	.	.	.	.	.	.	.
(>8.G-\L	p	.	.	.	.	.	.	.	4r	.	4r	.	[4B-\	.	[4d-X\	p	8.G-\L	Cun-	.	8.B-\	Cun-	.	8.d-X\	Cun-	.
16F\Jk	.	.	.	.	.	.	.	.	.	.	.	.	.	.	.	.	16F\Jk	-cta	.	16B-\	-cta	.	[16d-\	-cta	.
=17	=17	=17	=17	=17	=17	=17	=17	=17	=17	=17	=17	=17	=17	=17	=17	=17	=17	=17	=17	=17	=17	=17	=17	=17	=17
!	!	!	!	!	!	!	!	!	!	!	!	!	!	!	!	!	!	!	!	!	!	!	!LO:SIC:v=niejednoznaczne podłożenie tekstu	!	!
2.En\)	.	2.r	.	2.r	2.r	.	2.r	.	2.r	.	2.r	.	4B-\]	.	4d-\]	.	2En\	stri-	.	(>4B-\	stri-	.	4d-X\]	stri-	.
.	.	.	.	.	.	.	.	.	.	.	.	.	4A-\	.	4c\	.	.	.	.	4A-\)	.	.	4c\	.	.
.	.	.	.	.	.	.	.	.	.	.	.	.	[4G\	.	[4B-\	.	4E\	-cte	.	[>4Gn/	-cte	.	[4B-\	-cte	.
=18	=18	=18	=18	=18	=18	=18	=18	=18	=18	=18	=18	=18	=18	=18	=18	=18	=18	=18	=18	=18	=18	=18	=18	=18	=18
2F\	.	2.r	.	2.r	2.r	.	2.r	.	2.r	.	2.r	.	4G\]	.	4B-\]	.	2F\	di-	.	4G/]	dis-	.	4B-\]	.	.
.	.	.	.	.	.	.	.	.	.	.	.	.	4F\	.	4A-\	.	.	.	.	4F/	.	.	4A-\	dis-	.
8.D-X\L	.	.	.	.	.	.	.	.	.	.	.	.	4F\	.	4A-\	.	8.D-X\L	-scu-	.	4F/	-cu-	.	4A-\	-cu-	.
16C/Jk	.	.	.	.	.	.	.	.	.	.	.	.	.	.	.	.	16C/Jk	.	.	.	.	.	.	.	.
=19	=19	=19	=19	=19	=19	=19	=19	=19	=19	=19	=19	=19	=19	=19	=19	=19	=19	=19	=19	=19	=19	=19	=19	=19	=19
!	!	!	!	!	!LO:TX:a:i:t=dolce	!	!	!	!	!	!	!	!	!	!	!	!	!	!	!	!	!	!	!	!
4BBn/	.	2.r	.	2.r	2.r	.	2.r	.	2.r	.	2.r	.	4F\	.	4A-/	.	4BBn/	-su-	.	4F/	-su-	.	4A-/	-su-	.
4C/	.	.	.	.	.	.	.	.	.	.	.	.	4En\	.	4G/	.	4C/	-rus,	.	4En/	-rus,	.	4G/	-rus,	.
4r	.	.	.	.	.	.	.	.	.	.	.	.	4r	.	4r	.	4r	.	.	4r	.	.	4r	.	.
=20	=20	=20	=20	=20	=20	=20	=20	=20	=20	=20	=20	=20	=20	=20	=20	=20	=20	=20	=20	=20	=20	=20	=20	=20	=20
!	!	!	!	!	!	!	!	!	!	!	!	!	!	!	!	!	!	!	!	!LO:SIC:v="sotta voce" jakby przyklejone do Tenora I ale ten ma pauzy...	!	!	!	!	!
!	!	!	!	!	!	!	!	!	!	!	!	!	!	!	!	!	!	!	!	!LO:TX:a:t=sotta    voce	!	!	!	!	!
2.r	.	2.r	.	2.r	[2.F/	.	2.r	.	2.r	.	2.r	.	2.r	.	2.r	.	2.r	.	.	[>2.F/	Tu-	p	2.r	.	.
=21	=21	=21	=21	=21	=21	=21	=21	=21	=21	=21	=21	=21	=21	=21	=21	=21	=21	=21	=21	=21	=21	=21	=21	=21	=21
2.r	.	2.r	.	2.r	2F/]	.	2.r	.	2.r	.	2.r	.	2.r	.	2.r	.	2.r	.	.	2F/]	.	.	2.r	.	.
.	.	.	.	.	4A/	.	.	.	.	.	.	.	.	.	.	.	.	.	.	4An/	-ba	.	.	.	.
=22	=22	=22	=22	=22	=22	=22	=22	=22	=22	=22	=22	=22	=22	=22	=22	=22	=22	=22	=22	=22	=22	=22	=22	=22	=22
2.r	.	2.r	.	2.r	(<4c/	.	2.r	.	2.r	.	2.r	.	2.r	.	2.r	.	2.r	.	.	(>4c\	mi-	.	2.r	.	.
.	.	.	.	.	4A/)	.	.	.	.	.	.	.	.	.	.	.	.	.	.	4An\)	.	.	.	.	.
.	.	.	.	.	4c/	.	.	.	.	.	.	.	.	.	.	.	.	.	.	4c\	-rum	.	.	.	.
=23	=23	=23	=23	=23	=23	=23	=23	=23	=23	=23	=23	=23	=23	=23	=23	=23	=23	=23	=23	=23	=23	=23	=23	=23	=23
2.r	.	2.r	.	2.r	2f/	.	2.r	.	2.r	.	2.r	.	2.r	.	2.r	.	2.r	.	.	2f\	spar-	.	2.r	.	.
.	.	.	.	.	4c/	.	.	.	.	.	.	.	.	.	.	.	.	.	.	4c\	-gens	.	.	.	.
=24	=24	=24	=24	=24	=24	=24	=24	=24	=24	=24	=24	=24	=24	=24	=24	=24	=24	=24	=24	=24	=24	=24	=24	=24	=24
2.r	.	2.r	.	2.r	2A/	.	2.r	.	2.r	.	2.r	.	2.r	.	2.r	.	4r	.	.	2.An\	so-	.	4r	.	.
.	.	.	.	.	.	.	.	.	.	.	.	.	.	.	.	.	4En\	Per	.	.	.	.	4c#X\	.	p
.	.	.	.	.	4r	.	.	.	.	.	.	.	.	.	.	.	4F\	se-	.	.	.	.	4d\	.	.
=25	=25	=25	=25	=25	=25	=25	=25	=25	=25	=25	=25	=25	=25	=25	=25	=25	=25	=25	=25	=25	=25	=25	=25	=25	=25
!LO:LB:g=original	!	!LO:LB:g=original	!	!LO:LB:g=original	!LO:LB:g=original	!	!LO:LB:g=original	!	!LO:LB:g=original	!	!LO:LB:g=original	!	!LO:LB:g=original	!	!LO:LB:g=original	!	!LO:LB:g=original	!	!	!LO:LB:g=original	!	!	!LO:LB:g=original	!	!
2.r	.	2.r	.	2.r	2.r	.	2.r	.	2.r	.	2.r	.	2.r	.	2.r	.	4G\	-pul-	.	2An/	.	.	4en\	-pul-	.
.	.	.	.	.	.	.	.	.	.	.	.	.	.	.	.	.	4F\	-chra	.	.	.	.	4d\	-chra	.
.	.	.	.	.	.	.	.	.	.	.	.	.	.	.	.	.	4r	.	.	4A-X\	.	.	4r	.	.
=26	=26	=26	=26	=26	=26	=26	=26	=26	=26	=26	=26	=26	=26	=26	=26	=26	=26	=26	=26	=26	=26	=26	=26	=26	=26
2.r	.	2.r	.	2.r	2.r	.	2.r	.	2.r	.	2.r	.	2.r	.	2.r	.	4r	.	.	2.G/	.	.	4r	.	.
.	.	.	.	.	.	.	.	.	.	.	.	.	.	.	.	.	4D\	Per	.	.	.	.	4Bn\	per	.
.	.	.	.	.	.	.	.	.	.	.	.	.	.	.	.	.	4E-X\	se-	.	.	.	.	4c\	se-	.
=27	=27	=27	=27	=27	=27	=27	=27	=27	=27	=27	=27	=27	=27	=27	=27	=27	=27	=27	=27	=27	=27	=27	=27	=27	=27
*	*	*	*	*	*^	*	*	*	*	*	*	*	*	*	*	*	*	*	*	*	*	*	*	*	*
4r	.	2.r	.	4r	4r	2ryy	.	2.r	.	2.r	.	2.r	.	4r	.	4r	.	2F\	-pul-	.	2G/	-num	.	2d\	-pul-	<
4r	.	.	.	4r	4r	.	.	.	.	.	.	.	.	4r	.	4r	.	.	.	.	.	.	.	.	.	.
(>4E-\	.	.	.	8.G/L 8.g/	8.g/L	8.g\L	.	.	.	.	.	.	.	[4G\	.	4c\	.	4E-\	-chra	.	8.G/	per	.	4c\	-chra	[[
.	.	.	.	16G/Jk 16g/	16g/Jk	16g\Jk	.	.	.	.	.	.	.	.	.	.	.	.	.	.	16G/	se-	.	.	.	.
=28	=28	=28	=28	=28	=28	=28	=28	=28	=28	=28	=28	=28	=28	=28	=28	=28	=28	=28	=28	=28	=28	=28	=28	=28	=28	=28
!	!LO:HP:b	!	!	!	!	!	!	!	!	!	!	!	!	!	!	!	!	!	!	!	!	!	!	!	!	!
4D\	<	2.r	.	2G/ 2g/	2g/	2g\	.	2.r	.	2.r	.	2.r	.	4G\]	.	4Bn\	.	(>4D\	re-	.	4.G/	-pul-	.	(>4Bn\	re-	[
4BBn/	.	.	.	.	.	.	.	.	.	.	.	.	.	4d\	.	4f\	.	4BBn/)	.	.	.	.	.	4f\	-gi-	.
.	.	.	.	.	.	.	.	.	.	.	.	.	.	.	.	.	.	.	.	.	8G/	-chra	.	.	.	.
4C/)	.	.	.	4r	4r	4ryy	.	.	.	.	.	.	.	[4c\	.	[4e-\	.	4C/	-gi-	.	8.G/	re-	.	4e-\)	.	.
.	.	.	.	.	.	.	.	.	.	.	.	.	.	.	.	.	.	.	.	.	16c\	-gi-	.	.	.	.
*	*	*	*	*	*v	*v	*	*	*	*	*	*	*	*	*	*	*	*	*	*	*	*	*	*	*	*
=29	=29	=29	=29	=29	=29	=29	=29	=29	=29	=29	=29	=29	=29	=29	=29	=29	=29	=29	=29	=29	=29	=29	=29	=29	=29
2G\	.	2.r	.	2.G/ 2.g/	2.g/^<	.	2.r	.	2.r	.	2.r	.	4c\]	.	4e-\]	.	4G\	-o-	.	4c\	-o-	.	4e-\	-o-	.
.	.	.	.	.	.	.	.	.	.	.	.	.	4Bn\	.	4d\	.	4G\	-num,	.	4Bn\	-num,	.	4d\	-num,	.
8.BBn/L	.	.	.	.	.	.	.	.	.	.	.	.	8.G\L	.	8.d\L	.	8.BBn/	Co-	.	8.G/	Co-	.	8.d\	Co-	.
16BB/Jk	[[	.	.	.	.	.	.	.	.	.	.	.	16F\Jk	.	16d\Jk	.	16BB/	-get	.	16F/	-get	.	16d\	-get	.
=30	=30	=30	=30	=30	=30	=30	=30	=30	=30	=30	=30	=30	=30	=30	=30	=30	=30	=30	=30	=30	=30	=30	=30	=30	=30
4.C/	[	2.r	.	2.r	2.r	.	2.r	.	2.r	.	2.r	.	4.E-\	.	4.e-\	.	4.C/	o-	.	4.E-/	o-	.	4.e-\	o-	.
8D\L	.	.	.	.	.	.	.	.	.	.	.	.	8F\L	.	8d\L	.	8D/	-mnes	.	8F/	-mnes	.	8d\	-mnes	.
8.E-\	.	.	.	.	.	.	.	.	.	.	.	.	8.G\	.	8.c\	.	8.E-/	an-	.	8.G/	an-	.	8.c\	an-	.
16F\Jk	.	.	.	.	.	.	.	.	.	.	.	.	16A-\Jk	.	16d\Jk	.	16F/	-te	.	16A-\	-te	.	16d\	-te	.
=31	=31	=31	=31	=31	=31	=31	=31	=31	=31	=31	=31	=31	=31	=31	=31	=31	=31	=31	=31	=31	=31	=31	=31	=31	=31
2.G\	.	2.r	.	2.r	2.r	.	2.r	.	2.r	.	2.r	.	2c\	.	(>2e-\	.	2.G\	Thro-	.	2c\	Thro-	.	(>2e-\	Thro-	.
.	.	.	.	.	.	.	.	.	.	.	.	.	8.Bn\L	.	8.d\L	.	.	.	.	(>8.Bn\L	.	.	8.d\L	.	.
.	.	.	.	.	.	.	.	.	.	.	.	.	[16c\Jk	.	16c\Jk	.	.	.	.	16c\Jk	.	.	16c\Jk)	.	.
=32	=32	=32	=32	=32	=32	=32	=32	=32	=32	=32	=32	=32	=32	=32	=32	=32	=32	=32	=32	=32	=32	=32	=32	=32	=32
2C/	.	2.r	.	2.r	2.r	.	2.r	.	2.r	.	2.r	.	2c\]	.	2c\)	.	2C/	-num,	.	2c\)	-num,	.	2c\	-num,	.
4r	.	.	.	.	.	.	.	.	.	.	.	.	4r	.	4r	.	4r	.	.	4r	.	.	4r	.	.
=33	=33	=33	=33	=33	=33	=33	=33	=33	=33	=33	=33	=33	=33	=33	=33	=33	=33	=33	=33	=33	=33	=33	=33	=33	=33
*	*	*	*	*	*^	*	*	*	*	*	*^	*	*	*	*	*	*	*	*	*	*	*	*	*	*
!	!LO:DY:b:rj	!	!	!	!	!	!	!	!	!	!	!	!	!LO:DY:b	!	!	!	!	!	!	!	!	!	!	!	!	!
2A-\	ff	2.r	.	2.r	2a-X/	2a-\	.	2AA-/	.	2A-\	.	2A-/	2A-\	ff	2A-\	.	2A-\	ff	2A-\	Mors	.	2A-\	Mors	.	2A-\	Mors	ff
*	*	*	*	*	*v	*v	*	*	*	*	*	*v	*v	*	*	*	*	*	*	*	*	*	*	*	*	*	*
8r	.	.	.	.	4r	.	4r	.	4r	.	4r	.	8r	.	8r	.	8r	.	.	8r	.	.	8r	.	.
8A-\	.	.	.	.	.	.	.	.	.	.	.	.	8A-\	.	8A-\	.	8A-\	stu-	.	8A-\	stu-	.	8A-\	stu-	.
=34	=34	=34	=34	=34	=34	=34	=34	=34	=34	=34	=34	=34	=34	=34	=34	=34	=34	=34	=34	=34	=34	=34	=34	=34	=34
4c-X\	.	2.r	.	2.r	2.r	.	2.r	.	2.r	.	2.r	.	4c-X\	.	4c-X\	.	4c-X\	-pe-	.	(>4c-X\	-pe-	.	(>4c-X\	-pe-	.
4A-\	.	.	.	.	.	.	.	.	.	.	.	.	4A-\	.	4A-\	.	4A-\	-bit	.	4A-\	-bit	.	4A-\	-bit	.
4r	.	.	.	.	.	.	.	.	.	.	.	.	4r	.	4r	.	4r	.	.	4r	.	.	4r	.	.
=35	=35	=35	=35	=35	=35	=35	=35	=35	=35	=35	=35	=35	=35	=35	=35	=35	=35	=35	=35	=35	=35	=35	=35	=35	=35
2En\	.	2.r	.	2.r	2.r	.	4r	.	4r	.	4r	.	2G#X\	.	2Bn\	.	2En\	et	.	2G#X/)	et	.	2Bn\)	et	.
.	.	.	.	.	.	.	2En\	.	2G#X/	.	2Bn\	.	.	.	.	.	.	.	.	.	.	.	.	.	.
4E\	.	.	.	.	.	.	.	.	.	.	.	.	4G#\	.	[4en\	.	4E\	na-	.	4G#/	na-	.	(>4en\	na-	.
=36	=36	=36	=36	=36	=36	=36	=36	=36	=36	=36	=36	=36	=36	=36	=36	=36	=36	=36	=36	=36	=36	=36	=36	=36	=36
4F#X\	.	2.r;	.	2.r;	2.r;	.	4r	.	4r	.	4r	.	4An\	.	8e\L]	.	4F#X\	-tu-	.	4An/	-tu-	.	8e-\L	-tu-	.
.	.	.	.	.	.	.	.	.	.	.	.	.	.	.	8d#X\J	.	.	.	.	.	.	.	8d#X\J)	.	.
2F#\;	.	.	.	.	.	.	2F#X\^;	.	2An\;	.	2d#X\^<;	.	2A\;	.	2d#\;	.	2F#\;	-ra	.	2A;/	-ra	.	2d#\;	-ra	.
=37	=37	=37	=37	=37	=37	=37	=37	=37	=37	=37	=37	=37	=37	=37	=37	=37	=37	=37	=37	=37	=37	=37	=37	=37	=37
!	!LO:DY:b:rj	!	!	!	!	!	!	!	!	!	!	!	!	!	!	!	!	!	!	!	!	!	!	!	!
4BBn/	pp	2.r	.	2.r	2.r	.	2.r	.	2.r	.	2.r	.	4D#X\	.	[2.Bn\	pp	(<4BBn/	Cum	.	(<4D#X/	Cum	.	2Bn\	Cum	pp
4C#X/	.	.	.	.	.	.	.	.	.	.	.	.	4En\	.	.	.	4C#X/	.	.	4En/	.	.	.	.	.
4D#X/	.	.	.	.	.	.	.	.	.	.	.	.	4F#X\	.	.	.	4D#X/	re-	.	4F#X/)	re-	.	4B\	re-	.
=38	=38	=38	=38	=38	=38	=38	=38	=38	=38	=38	=38	=38	=38	=38	=38	=38	=38	=38	=38	=38	=38	=38	=38	=38	=38
2En/	.	2.r	.	2.r	2.r	.	2.r	.	2.r	.	2.r	.	2G\	.	(<2Bn\]	.	2En\)	-sur-	pp	2G/	-sur-	.	2Bn\	-sur-	.
4Dn/	.	.	.	.	.	.	.	.	.	.	.	.	4Fn\	.	4G/) 4B/	sf	4Dn\	-get	.	4Fn/	-get	.	4B\	-get	.
=39	=39	=39	=39	=39	=39	=39	=39	=39	=39	=39	=39	=39	=39	=39	=39	=39	=39	=39	=39	=39	=39	=39	=39	=39	=39
(<4Cn/	.	2.r	.	2.r	[2.c/	p<	2.r	.	2.r	.	2.r	.	4En\	.	[2.c\	.	(<4Cn/	cre-	.	(<4En/	cre-	.	2c\	cre-	.
4D/	.	.	.	.	.	.	.	.	.	.	.	.	4Fn\	.	.	p	4D/)	.	.	4F/)	.	.	.	.	.
!LO:SIC:v:s=E	!	!	!	!	!	!	!	!	!	!	!	!	!	!	!	!	!	!	!	!	!	!	!	!	!
4E-/	<	.	.	.	.	.	.	.	.	.	.	.	4G\	.	.	.	4En/	-a-	.	4G/	-a-	.	4c\	-a-	.
=40	=40	=40	=40	=40	=40	=40	=40	=40	=40	=40	=40	=40	=40	=40	=40	=40	=40	=40	=40	=40	=40	=40	=40	=40	=40
2F\)	.	2.r	.	2.r	2.c/]	[	4r	>	4r	.	4r	.	2A-X\	.	2c\]	.	2F\	-tu-	.	2A-X/	-tu-	.	2c\	-tu-	<
.	.	.	.	.	.	.	4r	.	4r	.	4r	.	.	.	.	.	.	.	.	.	.	.	.	.	.
!	!	!	!	!	!	!	!	!	!	!	!	!LO:DY:b	!	!	!	!	!	!	!	!	!	!	!	!	!
.	.	.	.	.	.	.	.	.	.	.	.	p	.	.	.	.	.	.	.	.	.	.	.	.	.
!	!	!	!	!	!	!	!	!	!	!LO:DY:b	!	!	!	!	!	!	!	!	!	!	!	!	!	!	!
4E-X\	[[	.	.	.	.	.	4E-X\	]	4G-X/	p	4c\	.	4G-X\	.	4A-X\ 4c\	sf	4E-X\	-ra	.	4G-X/	-ra	.	4c\	-ra	[[
.	.	.	.	.	.	.	.	.	.	.	.	.	.	.	.	.	.	.	.	.	.	.	.	.	.
=41	=41	=41	=41	=41	=41	=41	=41	=41	=41	=41	=41	=41	=41	=41	=41	=41	=41	=41	=41	=41	=41	=41	=41	=41	=41
*	*	*	*	*	*^	*	*	*	*	*	*	*	*	*	*^	*	*	*	*	*	*	*	*	*	*
!LO:LB:g=original	!	!LO:LB:g=original	!	!LO:LB:g=original	!LO:LB:g=original	!	!LO:LB:g=original	!	!	!LO:LB:g=original	!	!LO:LB:g=original	!	!LO:LB:g=original	!	!	!LO:LB:g=original	!	!LO:LB:g=original	!	!	!LO:LB:g=original	!	!	!LO:LB:g=original	!	!
(>4D-X\	ff	2.r	.	2.r	2.d-X/	2.d-\	.	4D-X\	<	(>4F/	.	[2.d-X\	.	(>4F\	.	2d-X/	4A-\	<	(>4D-X\	Ju-	.	(<4F/	ju-	.	2d-X\	Ju-	f
4E-\	.	.	.	.	.	.	.	4E-\	.	4G-X/	.	.	.	4G-X\	.	.	4rBByy	.	4E-\)	.	.	4G-X/	.	.	.	.	.
4F\)	.	.	.	.	.	.	.	4F\	[[	4A-\)	.	.	.	4A-\)	.	4d-/	4rBByy	.	4F\	-di-	<	4A-/)	-di-	.	4d-\	-di-	.
*	*	*	*	*	*v	*v	*	*	*	*	*	*	*	*	*	*v	*v	*	*	*	*	*	*	*	*	*	*
=42	=42	=42	=42	=42	=42	=42	=42	=42	=42	=42	=42	=42	=42	=42	=42	=42	=42	=42	=42	=42	=42	=42	=42	=42	=42
4.G-X\	.	2.r	.	2.r	(<2d-X/	.	2G-X\	[	2B-\	.	2d-X\]	.	4.B-\	.	4.d-X\	.	4.G-X\	-can-	[	4.B-\	-can-	.	4.d-X\	-can-	.
8G-\L	.	.	.	.	.	.	.	.	.	.	.	.	8B-\	.	8d-\	[	8G-\	-ti	.	8B-\	-ti	.	8d-\	-ti	.
8.F\	.	.	.	.	8.d-/L	.	4F\	.	4A-/	.	8.d-\L	.	8.A-\L	.	8.d-\L	.	8.F\	re-	.	8.A-\	re-	.	8.d-\	re-	.
16F\Jk	.	.	.	.	16c/Jk	.	.	.	.	.	16c\Jk	.	16A-\Jk	.	16c\Jk	.	16F\	-spon-	.	16A-\	-spon-	.	16c\	-spon-	.
=43	=43	=43	=43	=43	=43	=43	=43	=43	=43	=43	=43	=43	=43	=43	=43	=43	=43	=43	=43	=43	=43	=43	=43	=43	=43
4F\	.	2.r	.	2.r	4BX/)	.	4F\	.	4A-/	.	4Bn\	.	4A-\	.	4Bn\	.	4F\	-su-	.	4A-\	-su-	.	4Bn\	-su-	.
.	.	.	.	.	.	.	.	.	.	.	.	.	.	.	.	.	.	.	.	.	.	.	.	.	p
4En\	.	.	.	.	4c/	.	4En\	.	4Gn/	.	4c\	.	4Gn\	.	4c\	.	4En\	-ra	.	4Gn/	-ra	.	4c\	-ra	.
!	!	!	!	!	!	!	!	!	!	!	!	!	!	!	!	!	!	!	!	!	!	!	!LO:TX:a:i:t=dolce	!	!
4r	.	.	.	.	4r	.	4r	.	4r	.	4r	.	4r	.	4r	.	4r	.	.	4r	.	.	8.c\	Lu-	.
.	.	.	.	.	.	.	.	.	.	.	.	.	.	.	.	.	.	.	.	.	.	.	16c\	-ber	.
=44	=44	=44	=44	=44	=44	=44	=44	=44	=44	=44	=44	=44	=44	=44	=44	=44	=44	=44	=44	=44	=44	=44	=44	=44	=44
2.r	.	2.r	.	2.r	2.r	.	2.r	.	2.r	.	2.r	.	2.r	.	2.r	.	4r	.	.	4r	.	.	4d-X\^	scri-	.
.	.	.	.	.	.	.	.	.	.	.	.	.	.	.	.	.	4.F\	Lu-	.	4.A-\	Lu-	.	4c\	-ptus	.
.	.	.	.	.	.	.	.	.	.	.	.	.	.	.	.	.	.	.	.	.	.	.	4r	.	.
.	.	.	.	.	.	.	.	.	.	.	.	.	.	.	.	.	8F\	-ber	.	8A-\	-ber	.	.	.	.
=45	=45	=45	=45	=45	=45	=45	=45	=45	=45	=45	=45	=45	=45	=45	=45	=45	=45	=45	=45	=45	=45	=45	=45	=45	=45
2.r	.	2.r	.	2.r	2.r	.	2.r	.	2.r	.	2.r	.	2.r	.	2.r	.	4En\	scri-	.	4G/	scri-	.	4r	.	.
.	.	.	.	.	.	.	.	.	.	.	.	.	.	.	.	.	4F\	-ptus	.	4A-/	-ptus	.	4.c\	pro-	.
.	.	.	.	.	.	.	.	.	.	.	.	.	.	.	.	.	4r	.	.	4r	.	.	.	.	.
.	.	.	.	.	.	.	.	.	.	.	.	.	.	.	.	.	.	.	.	.	.	.	8c\	-fe-	.
=46	=46	=46	=46	=46	=46	=46	=46	=46	=46	=46	=46	=46	=46	=46	=46	=46	=46	=46	=46	=46	=46	=46	=46	=46	=46
2.r	.	2.r	.	2.r	2.r	.	2.r	.	2.r	.	2.r	.	2.r	.	4r	p	4r	.	.	4r	.	.	4d-X\^	-re-	.
.	.	.	.	.	.	.	.	.	.	.	.	.	.	.	4r	.	4.F\	pro-	.	4.A-\	pro-	.	4c\	-tur	.
.	.	.	.	.	.	.	.	.	.	.	.	.	.	.	8.c\L	.	.	.	.	.	.	.	8.c\	In	.
.	.	.	.	.	.	.	.	.	.	.	.	.	.	.	.	.	8F\	-fe-	.	8A-\	-fe-	.	.	.	.
.	.	.	.	.	.	.	.	.	.	.	.	.	.	.	16c\Jk	.	.	.	.	.	.	.	16c\	quo	.
=47	=47	=47	=47	=47	=47	=47	=47	=47	=47	=47	=47	=47	=47	=47	=47	=47	=47	=47	=47	=47	=47	=47	=47	=47	=47
4r	.	2.r	.	2.r	2.r	.	2.r	.	2.r	.	2.r	.	4r	.	2.c\	.	4En\	-re-	.	4G/	-re-	.	2c\	to-	.
4r	.	.	.	.	.	.	.	.	.	.	.	.	4r	.	.	.	4F\	-tur	.	4A-/	-tur	.	.	.	.
8.F\L	p	.	.	.	.	.	.	.	.	.	.	.	8.A-\L	.	.	.	8.F\	In	.	8.A-/	In	.	4c\	-tum	.
16F\Jk	.	.	.	.	.	.	.	.	.	.	.	.	16A-\Jk	.	.	.	16F\	quo	.	16A-/	quo	.	.	.	.
=48	=48	=48	=48	=48	=48	=48	=48	=48	=48	=48	=48	=48	=48	=48	=48	=48	=48	=48	=48	=48	=48	=48	=48	=48	=48
2.F\	.	2.r	.	2.r	2.r	.	2.r	.	2.r	.	2.r	.	2.A-\	.	2c\	.	4.F\	to-	.	4.A-/	to-	.	2c\	con-	.
.	.	.	.	.	.	.	.	.	.	.	.	.	.	.	.	.	8F\	-tum	.	8A-/	-tum	.	.	.	.
.	.	.	.	.	.	.	.	.	.	.	.	.	.	.	4f\	.	8F\	con-	.	8.A-/	con-	.	[4f\	-ti-	.
.	.	.	.	.	.	.	.	.	.	.	.	.	.	.	.	.	8F\	-ti-	.	.	.	.	.	.	.
.	.	.	.	.	.	.	.	.	.	.	.	.	.	.	.	.	.	.	.	16A-/	-ti-	.	.	.	.
=49	=49	=49	=49	=49	=49	=49	=49	=49	=49	=49	=49	=49	=49	=49	=49	=49	=49	=49	=49	=49	=49	=49	=49	=49	=49
2G\	.	2.r	.	2.r	2.r	.	2.r	.	2.r	.	2.r	.	2.B-\	.	8f\L	.	4G\	-ne-	.	4B-\	-ne-	.	8f\L]	-ne-	.
.	.	.	.	.	.	.	.	.	.	.	.	.	.	.	8en\J	.	.	.	.	.	.	.	8en\J	.	.
.	.	.	.	.	.	.	.	.	.	.	.	.	.	.	4e\	.	4G\	-tur,	.	4B-\	-tur,	.	4e\	-tur,	.
8.G\L	.	.	.	.	.	.	.	.	.	.	.	.	.	.	8.e\L	.	8.G\	Un-	.	8.B-\	Un-	.	8.e\	Un-	.
16F\Jk	.	.	.	.	.	.	.	.	.	.	.	.	.	.	16f\Jk	.	16F\	-de	.	16B-\	-de	.	16f\	-de	.
=50	=50	=50	=50	=50	=50	=50	=50	=50	=50	=50	=50	=50	=50	=50	=50	=50	=50	=50	=50	=50	=50	=50	=50	=50	=50
!!pagebreak:original
2.En\	.	2.r	.	2.r	2.r	.	2.r	.	2.r	.	2.r	.	2B-\	.	4.g\	.	4.En\	mun-	.	4.B-\	mun-	.	4.g\	mu-	.
.	.	.	.	.	.	.	.	.	.	.	.	.	.	.	8d-X\L	.	8E\	-dus	.	8B-\	-dus	.	8d-X\	-dus	.
.	.	.	.	.	.	.	.	.	.	.	.	.	(>4G\	.	8.c\	.	8.E\	ju-	.	8.G/	ju-	.	8.c\	ju-	.
.	.	.	.	.	.	.	.	.	.	.	.	.	.	.	(>16B-\Jk	.	16E\	-di-	.	16G/	-di-	.	[16B-\	-di-	.
=51	=51	=51	=51	=51	=51	=51	=51	=51	=51	=51	=51	=51	=51	=51	=51	=51	=51	=51	=51	=51	=51	=51	=51	=51	=51
4F\	.	2.r	.	2.r	2.r	.	2.r	.	2.r	.	2.r	.	8.G\L	.	8.B-L/	.	4F\	-ce-	.	8.G/L	-ce-	.	8.B-\L]	-ce-	.
.	.	.	.	.	.	.	.	.	.	.	.	.	16F\Jk	.	16A-\Jk)	.	.	.	.	16F/Jk	.	.	16A-\Jk	.	.
4C/	.	.	.	.	.	.	.	.	.	.	.	.	4En\)	.	4G/	.	4C/	-tur	.	4En/	-tur	.	4G/	-tur	.
4r	.	.	.	.	.	.	.	.	.	.	.	.	4r	.	4r	.	4r	.	.	4r	.	.	8.c\	ju-	.
.	.	.	.	.	.	.	.	.	.	.	.	.	.	.	.	.	.	.	.	.	.	.	16c\	-dex	.
=52	=52	=52	=52	=52	=52	=52	=52	=52	=52	=52	=52	=52	=52	=52	=52	=52	=52	=52	=52	=52	=52	=52	=52	=52	=52
2.r	.	2.r	.	2.r	2.r	.	2.r	.	2.r	.	2.r	.	2.r	.	2.r	.	4r	.	.	4r	.	.	4d-X\^	er-	.
.	.	.	.	.	.	.	.	.	.	.	.	.	.	.	.	.	4.F\	Ju-	.	4.A-\	Ju-	.	4c\	-go	.
.	.	.	.	.	.	.	.	.	.	.	.	.	.	.	.	.	.	.	.	.	.	.	4r	.	.
.	.	.	.	.	.	.	.	.	.	.	.	.	.	.	.	.	8F\	-dex	.	8A-\	-dex	.	.	.	.
=53	=53	=53	=53	=53	=53	=53	=53	=53	=53	=53	=53	=53	=53	=53	=53	=53	=53	=53	=53	=53	=53	=53	=53	=53	=53
2.r	.	2.r	.	2.r	2.r	.	2.r	.	2.r	.	2.r	.	2.r	.	2.r	.	4En\	er-	.	4G/	er-	.	4r	.	.
.	.	.	.	.	.	.	.	.	.	.	.	.	.	.	.	.	4F\	-go	.	4A-/	-go	.	4.c\	cum	.
.	.	.	.	.	.	.	.	.	.	.	.	.	.	.	.	.	4r	.	.	4r	.	.	.	.	.
.	.	.	.	.	.	.	.	.	.	.	.	.	.	.	.	.	.	.	.	.	.	.	8c\	se-	.
=54	=54	=54	=54	=54	=54	=54	=54	=54	=54	=54	=54	=54	=54	=54	=54	=54	=54	=54	=54	=54	=54	=54	=54	=54	=54
2.r	.	2.r	.	2.r	2.r	.	2.r	.	2.r	.	2.r	.	2.r	.	4r	.	4r	.	.	4r	.	.	4d-X\^	-de-	.
.	.	.	.	.	.	.	.	.	.	.	.	.	.	.	4r	.	4.F\	cum	.	4.A-/	cum	.	4c\	-bit	.
.	.	.	.	.	.	.	.	.	.	.	.	.	.	.	8.c\L	.	.	.	.	.	.	.	8.c\	Quid-	.
.	.	.	.	.	.	.	.	.	.	.	.	.	.	.	.	.	8F\	se-	.	8A-/	se-	.	.	.	.
.	.	.	.	.	.	.	.	.	.	.	.	.	.	.	16c\Jk	.	.	.	.	.	.	.	16c\	-quid	.
=55	=55	=55	=55	=55	=55	=55	=55	=55	=55	=55	=55	=55	=55	=55	=55	=55	=55	=55	=55	=55	=55	=55	=55	=55	=55
!LO:LB:g=original	!	!LO:LB:g=original	!	!LO:LB:g=original	!LO:LB:g=original	!	!LO:LB:g=original	!	!LO:LB:g=original	!	!LO:LB:g=original	!	!LO:LB:g=original	!	!LO:LB:g=original	!	!LO:LB:g=original	!	!	!LO:LB:g=original	!	!	!LO:LB:g=original	!	!
4r	.	2.r	.	2.r	2.r	.	2.r	.	2.r	.	2.r	.	4r	.	2.c\	.	4En\	-de-	.	4G/	-de-	.	2c\	la-	.
4r	.	.	.	.	.	.	.	.	.	.	.	.	4r	.	.	.	4F\	-bit	.	4A-/	-bit	.	.	.	.
8.F\L	.	.	.	.	.	.	.	.	.	.	.	.	8.A-\L	.	.	.	8.F\	Quid-	.	8.A-/	Quid-	.	4c\	-tet,	.
16F\Jk	.	.	.	.	.	.	.	.	.	.	.	.	16A-\Jk	.	.	.	16F\	-quid	.	16A-/	-quid	.	.	.	.
=56	=56	=56	=56	=56	=56	=56	=56	=56	=56	=56	=56	=56	=56	=56	=56	=56	=56	=56	=56	=56	=56	=56	=56	=56	=56
2.F\	.	2.r	.	2.r	2.r	.	2.r	.	2.r	.	2.r	.	2.A-\	.	2c\	.	4.F\	la-	.	4.A-\	la-	.	2c\	a-	.
.	.	.	.	.	.	.	.	.	.	.	.	.	.	.	.	.	8F\	-tet	.	8A-\	-tet	.	.	.	.
.	.	.	.	.	.	.	.	.	.	.	.	.	.	.	[4f\	.	8.F\	a-	.	8.A-\	a-	.	(>4f\	-a-	.
.	.	.	.	.	.	.	.	.	.	.	.	.	.	.	.	.	16F\	-pa-	.	16A-\	-pa-	.	.	.	.
=57	=57	=57	=57	=57	=57	=57	=57	=57	=57	=57	=57	=57	=57	=57	=57	=57	=57	=57	=57	=57	=57	=57	=57	=57	=57
2G\	.	2.r	.	2.r	4r	.	2.r	.	2.r	.	2.r	.	2B-\	.	8f\L]	.	4G\	-re-	.	4B-\	-re-	.	8f\L	-re-	.
.	.	.	.	.	.	.	.	.	.	.	.	.	.	.	8en\J	.	.	.	.	.	.	.	8en\J)	.	.
.	.	.	.	.	4r	.	.	.	.	.	.	.	.	.	4e\	.	4G\	-bit	.	4B-\	-bit	.	4e\	-bit	.
8.G\L	.	.	.	.	8.r	.	.	.	.	.	.	.	[4B-\	.	8.e\L	.	8.G\	Nil	.	8.B-\	Nil	.	8.e\	Nil	.
*	*	*	*	*	*^	*	*	*	*	*	*	*	*	*	*	*	*	*	*	*	*	*	*	*	*
16En\Jk	.	.	.	.	16c/	16c\	p	.	.	.	.	.	.	.	.	(>16g\Jk	.	16En\	in-	.	(>16B-\	in-	.	(>16g\	in-	.
=58	=58	=58	=58	=58	=58	=58	=58	=58	=58	=58	=58	=58	=58	=58	=58	=58	=58	=58	=58	=58	=58	=58	=58	=58	=58	=58
2F\	.	2.r	.	2.r	2c/	2c\	.	2.r	.	2.r	.	2.r	.	8B-\L]	.	8g\L	.	4F\	-ul-	.	8B-\L	-ul-	.	8g\L	-ul-	.
.	.	.	.	.	.	.	.	.	.	.	.	.	.	8A-\J	.	8f\J)	.	.	.	.	8A-\J)	.	.	8f\J)	.	.
.	.	.	.	.	.	.	.	.	.	.	.	.	.	4A-\	.	4f\	.	4F\	-tum	.	4A-\	-tum	.	4f\	-tum	.
!	!	!	!	!	!	!	!	!	!	!	!	!	!	!	!	!LO:SIC:v:s=8.e	!	!	!	!	!	!	!	!	!	!
8.G\L	.	.	.	.	8.r	8.ryy	.	.	.	.	.	.	.	[4B-\	.	8.e-\L	.	8.G\	re-	.	8.B-\	re-	.	8.en\	re-	.
16En\Jk	.	.	.	.	16c/	16c\	.	.	.	.	.	.	.	.	.	(>16g\Jk	.	16En\	-ma-	.	(>16B-\	-ma-	.	(>16g\	-ma-	.
=59	=59	=59	=59	=59	=59	=59	=59	=59	=59	=59	=59	=59	=59	=59	=59	=59	=59	=59	=59	=59	=59	=59	=59	=59	=59	=59
4F\	.	2.r	.	2.r	4c/	4c\	.	2.r	.	2.r	.	2.r	.	8B-\L]	.	8g\L	.	4F\	-ne-	.	8B-\L)	-ne-	.	8g\L	-ne-	.
.	.	.	.	.	.	.	.	.	.	.	.	.	.	8A-\J	.	8f\J	.	.	.	.	8A-\J	.	.	8f\J)	.	.
!	!	!	!	!	!	!	!	!	!	!	!	!	!	!	!	!LO:SIC:v=niejednoznaczne zakończenie łuku	!	!	!	!	!	!	!	!	!	!
4F\	.	.	.	.	4c/	4c\	.	.	.	.	.	.	.	4A-\	.	4f\)	.	4F\	-bit,	.	4A-\	-bit,	.	4f\	-bit,	.
4r	.	.	.	.	4r	4ryy	.	.	.	.	.	.	.	4r	.	4r	.	8.D-X/	quid	.	8.A-\	quid	.	8.f\	quid	pp
.	.	.	.	.	.	.	.	.	.	.	.	.	.	.	.	.	.	16D-/	sum	.	16A-\	sum	.	16f\	sum	.
*	*	*	*	*	*v	*v	*	*	*	*	*	*	*	*	*	*	*	*	*	*	*	*	*	*	*	*
=60	=60	=60	=60	=60	=60	=60	=60	=60	=60	=60	=60	=60	=60	=60	=60	=60	=60	=60	=60	=60	=60	=60	=60	=60	=60
2.r	.	2.r	.	2.r	2.r	.	2.r	.	2.r	.	2.r	.	2.r	.	2.r	.	4.D-X/	mi-	.	4.A-\	mi-	.	4.f\	mi-	.
.	.	.	.	.	.	.	.	.	.	.	.	.	.	.	.	.	8D-/	-ser	.	8A-\	-ser	.	8f\	-ser	.
.	.	.	.	.	.	.	.	.	.	.	.	.	.	.	.	.	8.D-/	tunc	.	8.A-\	tunc	.	8.f\	tunc	.
.	.	.	.	.	.	.	.	.	.	.	.	.	.	.	.	.	16D-/	dic-	.	16A-\	dic-	.	16f\	dic-	.
=61	=61	=61	=61	=61	=61	=61	=61	=61	=61	=61	=61	=61	=61	=61	=61	=61	=61	=61	=61	=61	=61	=61	=61	=61	=61
2.r	.	2.r	.	2.r	2.r	.	2.r	.	2.r	.	2.r	.	2.r	.	2.r	.	(<8.D-XL/	-tu-	.	4A-\	-tu-	.	(>8.f\L	-tu-	.
.	.	.	.	.	.	.	.	.	.	.	.	.	.	.	.	.	16F\Jk	.	.	.	.	.	16d-X\Jk	.	.
.	.	.	.	.	.	.	.	.	.	.	.	.	.	.	.	.	4F/)	-rus	.	4A-\	-rus	.	4d-\)	-rus	.
.	.	.	.	.	.	.	.	.	.	.	.	.	.	.	.	.	8.D-/	Quem	.	8.A-\	Quem	.	8.f\	Quem	.
.	.	.	.	.	.	.	.	.	.	.	.	.	.	.	.	.	16D-/	pa-	.	16A-\	pa-	.	16f\	pa-	.
=62	=62	=62	=62	=62	=62	=62	=62	=62	=62	=62	=62	=62	=62	=62	=62	=62	=62	=62	=62	=62	=62	=62	=62	=62	=62
!!pagebreak:original
2.r	.	2.r	.	2.r	2.r	.	2.r	.	2.r	.	2.r	.	2.r	.	2.r	.	4.D-X/	-tro-	.	4.A-\	-tro-	.	4.f\	-tro-	.
.	.	.	.	.	.	.	.	.	.	.	.	.	.	.	.	.	8D-/	-num	.	8A-\	-num	.	8f\	-num	.
.	.	.	.	.	.	.	.	.	.	.	.	.	.	.	.	.	8.D-/	ro-	.	8.A-\	ro-	.	8.f\	ro-	.
.	.	.	.	.	.	.	.	.	.	.	.	.	.	.	.	.	16D-/	-ga-	.	16A-\	-ga-	.	16f\	-ga-	.
=63	=63	=63	=63	=63	=63	=63	=63	=63	=63	=63	=63	=63	=63	=63	=63	=63	=63	=63	=63	=63	=63	=63	=63	=63	=63
2.r	.	2.r	.	2.r	2.r	.	2.r	.	2.r	.	2.r	.	2.r	.	2.r	.	(8.D-XL/	-tu-	.	4A-\	-tu-	.	(>8.f\L	-tu-	.
.	.	.	.	.	.	.	.	.	.	.	.	.	.	.	.	.	16F\Jk)	.	.	.	.	.	16d-X\Jk	.	.
.	.	.	.	.	.	.	.	.	.	.	.	.	.	.	.	.	4F/	-rus	.	4A-\	-rus	.	4d-\)	-rus	p
.	.	.	.	.	.	.	.	.	.	.	.	.	.	.	.	.	8.G\	Cum	.	8.B-\	Cum	.	8.d-\	cum	p
.	.	.	.	.	.	.	.	.	.	.	.	.	.	.	.	.	16G\	vix	.	16B-\	vix	.	16d-\	vix	p
=64	=64	=64	=64	=64	=64	=64	=64	=64	=64	=64	=64	=64	=64	=64	=64	=64	=64	=64	=64	=64	=64	=64	=64	=64	=64
2.r	.	2.r	.	2.r	2.r	.	2.r	.	2.r	.	2.r	.	2.r	.	2.r	.	4A-\	ju-	.	8B-\L	ju-	.	8d-X\L	ju-	.
.	.	.	.	.	.	.	.	.	.	.	.	.	.	.	.	.	.	.	.	8A-\J	.	.	8c\J	.	.
.	.	.	.	.	.	.	.	.	.	.	.	.	.	.	.	.	4A-\	-stus	.	4A-\	-stus	.	4c\	-stus	.
.	.	.	.	.	.	.	.	.	.	.	.	.	.	.	.	.	8.AA-/	sit	.	8.F/	sit	.	8.c\	sit	.
.	.	.	.	.	.	.	.	.	.	.	.	.	.	.	.	.	16AA-/	ſe-	.	16F#X/	ſe-	.	16c\	ſe-	.
=65	=65	=65	=65	=65	=65	=65	=65	=65	=65	=65	=65	=65	=65	=65	=65	=65	=65	=65	=65	=65	=65	=65	=65	=65	=65
2.r	.	2.r	.	2.r	2.r	.	2.r	.	2.r	.	2.r	.	2.r	.	2.r	.	4GG/	-cu-	.	4G/	-cu-	.	(>8c\L	-cu-	.
.	.	.	.	.	.	.	.	.	.	.	.	.	.	.	.	.	.	.	.	.	.	.	8Bn\J	.	.
.	.	.	.	.	.	.	.	.	.	.	.	.	.	.	.	.	4GG/	-rus	.	4G/	-rus	.	4B\)	-rus	.
.	.	.	.	.	.	.	.	.	.	.	.	.	.	.	.	.	4ryy	.	.	4r	.	.	4r	.	.
=66	=66	=66	=66	=66	=66	=66	=66	=66	=66	=66	=66	=66	=66	=66	=66	=66	=66	=66	=66	=66	=66	=66	=66	=66	=66
!	!LO:DY:b:rj	!	!	!	!	!	!	!LO:DY:b	!	!	!	!	!	!LO:DY:b	!	!	!	!	!	!	!	!	!	!	!LO:DY:rj
*	*	*	*	*	*	*	*^	*	*	*	*	*	*	*	*	*	*	*	*	*	*	*	*	*	*
4.c\	ff	4C/	.	4c/	4.c/	.	4.c\	4.C\	ff	4.c\	.	4.c\	.	4.c\	ff	4.c\	ff	4.c\	Rex	.	4.c\	Rex	.	4.c\	Rex	ff
.	.	4r	.	4r	.	.	.	.	.	.	.	.	.	.	.	.	.	.	.	.	.	.	.	.	.	.
8Bn\	.	.	.	.	8BX/	.	8Bn\	8BBn\	.	8Bn\	.	8Bn\	.	8Bn\	.	8Bn\	.	8Bn\	tre-	.	8Bn\	tre-	.	8Bn\	tre-	.
8.c\L	.	4r	.	4r	8.c/L	.	8.cL\	8.CL\	.	8.c\L	.	8.c\L	.	8.c\L	.	8.c\L	.	8.c\	-men-	.	8.c\	-men-	.	8.c\	-men-	.
!	!	!	!	!	!	!	!	!	!	!	!	!	!	!	!	!	!	!	!	!	!	!	!	!LO:SIC:v:s=16B	!	!
16B\Jk	.	.	.	.	16B/Jk	.	16BJk\	16BBJ\	.	16B\Jk	.	16B\Jk	.	16B\Jk	.	16B\Jk	.	16B\	-dæ	.	16B\	-dæ	.	16c\	-dæ	.
*	*	*	*	*	*	*	*v	*v	*	*	*	*	*	*	*	*	*	*	*	*	*	*	*	*	*	*
=67	=67	=67	=67	=67	=67	=67	=67	=67	=67	=67	=67	=67	=67	=67	=67	=67	=67	=67	=67	=67	=67	=67	=67	=67	=67
!LO:LB:g=original	!	!	!	!LO:LB:g=original	!LO:LB:g=original	!	!LO:LB:g=original	!	!LO:LB:g=original	!	!LO:LB:g=original	!	!LO:LB:g=original	!	!LO:LB:g=original	!	!LO:LB:g=original	!	!	!LO:LB:g=original	!	!	!LO:LB:g=original	!	!
2c\	.	2.r	.	2.r	2c/	.	2C\ 2c\	.	2c\	.	2c\	.	2c\	.	2c\	.	2c\	Ma-	.	2c\	Ma-	.	2c\	Ma-	.
4A-\	.	.	.	.	4r	.	4AA-\ 4A-\	.	4A-\	.	4A-\	.	4A-\	.	4A-\	.	4A-\	-je-	.	4A-\	-je-	.	4A-\	-je-	.
=68	=68	=68	=68	=68	=68	=68	=68	=68	=68	=68	=68	=68	=68	=68	=68	=68	=68	=68	=68	=68	=68	=68	=68	=68	=68
8.G\L	.	4r	.	4r	2.r	.	8.GG/L 8.G/	.	8.G/L	.	8.G/L	.	8.G\L	.	8.G/L	.	8.G\L	-sta-	.	8.G/L	-sta-	.	8.G/L	-sta-	.
16A-\Jk	.	.	.	.	.	.	16AA-\Jk 16A-\	.	16A-\Jk	.	16A-\Jk	.	16A-\Jk	.	16A-\Jk	.	16A-\Jk	.	.	16A-\Jk	.	.	16A-\Jk	.	.
4G\	.	4r	.	8r	.	.	4GG\ 4G\	.	4G/	.	4G/	.	4G\	.	4G/	.	4G\	-tis	.	4G/	-tis	.	4G/	-tis	.
.	.	.	.	8G/L 8g/	.	.	.	.	.	.	.	.	.	.	.	.	.	.	.	.	.	.	.	.	.
4r	.	8GG/L	.	8.G/ 8.g/	.	.	4r	.	4r	.	4r	>	4r	.	4r	.	4r	.	.	4r	.	.	4r	.	.
.	.	16.GG/L	.	.	.	.	.	.	.	.	.	.	.	.	.	.	.	.	.	.	.	.	.	.	.
.	.	.	.	16G/Jk 16g/	.	.	.	.	.	.	.	.	.	.	.	.	.	.	.	.	.	.	.	.	.
.	.	32GG/JJk	.	.	.	.	.	.	.	.	.	.	.	.	.	.	.	.	.	.	.	.	.	.	.
=69	=69	=69	=69	=69	=69	=69	=69	=69	=69	=69	=69	=69	=69	=69	=69	=69	=69	=69	=69	=69	=69	=69	=69	=69	=69
!	!	!	!	!LO:SIC:v=w źródle półnuta bez kropki	!	!	!	!	!	!	!	!	!	!	!	!	!	!	!	!	!	!	!	!	!
!	!	!	!	!LO:N:vis=2	!	!	!	!	!	!	!	!	!	!	!	!	!	!	!	!	!	!	!	!	!
2G\	.	16GG/LL	.	2.G/ [2.g/	[2.g/	.	2G\	.	2.Bn\	.	2.d\	.	2Bn\	.	2d\	>	2G\	qui	.	2Bn\	qui	.	2d\	qui	>
.	.	16GG/	.	.	.	.	.	.	.	.	.	.	.	.	.	.	.	.	.	.	.	.	.	.	.
.	.	16GG/	.	.	.	.	.	.	.	.	.	.	.	.	.	.	.	.	.	.	.	.	.	.	.
.	.	16GG/	.	.	.	.	.	.	.	.	.	.	.	.	.	.	.	.	.	.	.	.	.	.	.
.	.	16GG/	.	.	.	.	.	.	.	.	.	.	.	.	.	.	.	.	.	.	.	.	.	.	.
.	.	16GG/	.	.	.	.	.	.	.	.	.	]	.	.	.	.	.	.	.	.	.	.	.	.	.
.	.	16GG/	.	.	.	.	.	.	.	.	.	.	.	.	.	.	.	.	.	.	.	.	.	.	.
.	.	16GG/JJ	.	.	.	.	.	.	.	.	.	.	.	.	.	.	.	.	.	.	.	.	.	.	.
4F\	.	8GG/	.	.	.	.	4F\	.	.	.	.	.	4B\	.	4d\	]]	4F\	sal-	.	4B\	sal-	.	4d\	sal-	.
.	.	8r	.	.	.	.	.	.	.	.	.	.	.	.	.	.	.	.	.	.	.	.	.	.	.
=70	=70	=70	=70	=70	=70	=70	=70	=70	=70	=70	=70	=70	=70	=70	=70	=70	=70	=70	=70	=70	=70	=70	=70	=70	=70
4.E-\	.	2.r	.	4G/ 4g/]	4g/]	.	4E-\	.	4c\	.	4c\	]	4c\	.	4.c\	]	4.E-\	-van-	.	4.c\	-van-	.	4.c\	-van-	]
.	.	.	.	4r	4r	.	4r	.	4r	.	4r	.	4G\	.	.	.	.	.	.	.	.	.	.	.	.
!LO:SIC:v=s=8BB	!	!	!	!	!	!	!	!	!	!	!	!	!	!	!	!	!	!	!	!	!	!	!	!	!
8BB-/L	.	.	.	.	.	.	.	.	.	.	.	.	.	.	8d\L	.	8BBn/	-dos	.	8G/	-dos	.	8d\	-dos	.
8.C/	.	.	.	4r	4r	.	4r	.	4r	.	4r	.	8.G\L	.	8.e-\	.	8.C/	sal-	.	8.G/	sal-	.	8.e-\	sal-	.
16E-\Jk	.	.	.	.	.	.	.	.	.	.	.	.	16c\Jk	.	16e-\Jk	.	16E-\	-vas	.	16c\	-vas	.	16e-\	-vas	.
=71	=71	=71	=71	=71	=71	=71	=71	=71	=71	=71	=71	=71	=71	=71	=71	=71	=71	=71	=71	=71	=71	=71	=71	=71	=71
2G\	.	2.r	.	2.r	2.r	.	2.r	.	2.r	.	2.r	.	8.Bn\L	.	8.d\L	.	4G\	gra-	.	8.Bn\L	gra-	.	8.d\L	gra-	.
.	.	.	.	.	.	.	.	.	.	.	.	.	16c\Jk	.	16e-\Jk	.	.	.	.	16c\Jk	.	.	16e-\Jk	.	.
.	.	.	.	.	.	.	.	.	.	.	.	.	4B\	.	4d\	.	4G\	-tis	.	4B\	-tis	.	4d\	-tis	.
8.F\L	.	.	.	.	.	.	.	.	.	.	.	.	8.A-X\L	.	8.d\L	.	8.F\	sal-	.	8.A-X\	Sal-	.	8.d\	sal-	.
16F\Jk	.	.	.	.	.	.	.	.	.	.	.	.	16A-\Jk	.	16d\Jk	>	16F\	-va	.	16A-\	-va	.	16d\	-va	>
=72	=72	=72	=72	=72	=72	=72	=72	=72	=72	=72	=72	=72	=72	=72	=72	=72	=72	=72	=72	=72	=72	=72	=72	=72	=72
4E-\	>	2.r	.	2.r	2.r	.	4r	.	4r	.	4r	.	4G\	.	4e-\	.	4E-\	me	.	4G/	me	.	4e-\	me	.
2AA-/	]	.	.	.	.	.	2AA-/	.	[2A-/	.	[2c\	.	[2A-\	.	[2c\	]	2AA-/	fons	.	[2A-\	fons	.	[2c\	fons	]
=73	=73	=73	=73	=73	=73	=73	=73	=73	=73	=73	=73	=73	=73	=73	=73	=73	=73	=73	=73	=73	=73	=73	=73	=73	=73
2.BB-/	.	2.r	.	2.r	2.r	.	2.BB-/	.	4A-/]	.	4.c\]	.	4A-\]	.	4c\]	.	2BB-/	pie-	.	4A-\]	.	.	4c\]	.	.
.	.	.	.	.	.	.	.	.	4G/	.	.	.	4G\	.	4B-\	.	.	.	.	4G/	.	.	4B-\	.	.
.	.	.	.	.	.	.	.	.	.	.	8B-\	.	.	.	.	.	.	.	.	.	.	.	.	.	.
.	.	.	.	.	.	.	.	.	4E-/	.	4G/	.	8E-\L	.	8GL/	.	4BB-/	.	.	8E-/	pie-	.	8G/	pi-	.
.	.	.	.	.	.	.	.	.	.	.	.	.	8G\J	.	8B-\J	.	.	.	.	8G/	.	.	8B-\	-e-	.
=74	=74	=74	=74	=74	=74	=74	=74	=74	=74	=74	=74	=74	=74	=74	=74	=74	=74	=74	=74	=74	=74	=74	=74	=74	=74
2.BB-/	.	2.r	.	2.r	2.r	.	2.BB-/	.	2G/	.	(>2B-\	.	2G\	.	2B-\	.	2.BB-/	-ta-	.	(<2G/	-ta-	.	(>2B-\	-ta-	.
.	.	.	.	.	.	.	.	.	8G/L	.	8B-\L	.	8G\L	.	8B-\L	.	.	.	.	8G/L	.	.	8B-\L	.	.
.	.	.	.	.	.	.	.	.	8F/J	.	8A-\J)	.	8F\J	.	8A-\J	.	.	.	.	8F/J)	.	.	8A-\J)	.	.
=75	=75	=75	=75	=75	=75	=75	=75	=75	=75	=75	=75	=75	=75	=75	=75	=75	=75	=75	=75	=75	=75	=75	=75	=75	=75
2E-\	.	2.r	.	2.r	2.r	.	2E-\	.	2E-/	.	2G/	.	2E-\	.	2G/	.	2E-\	-tis	.	2E-/	-tis	.	2G/	-tis	.
!	!	!	!	!	!	!	!	!	!	!	!	!	!	!	!	!	!LO:TX:a:i:t=pregando	!	!	!	!	!	!	!	!
4r	.	.	.	.	.	.	4r	.	4r	.	4r	.	4r	.	4r	.	8.E-\	Re-	.	4r	.	.	4r	.	.
.	.	.	.	.	.	.	.	.	.	.	.	.	.	.	.	.	16E-\	-cor-	.	.	.	.	.	.	.
=76	=76	=76	=76	=76	=76	=76	=76	=76	=76	=76	=76	=76	=76	=76	=76	=76	=76	=76	=76	=76	=76	=76	=76	=76	=76
!!pagebreak:original
!	!	!	!	!	!	!	!	!	!	!	!	!	!	!	!	!	!	!	!	!	!	!	!LO:TX:a:i:t=pregando	!	!
2.r	.	2.r	.	2.r	2.r	.	2.r	.	2.r	.	2.r	.	2.r	.	2.r	.	4.E-\	-da-	.	4r	.	.	4r	.	.
.	.	.	.	.	.	.	.	.	.	.	.	.	.	.	.	.	.	.	.	4r	.	.	4r	.	.
.	.	.	.	.	.	.	.	.	.	.	.	.	.	.	.	.	8E-\	-re	.	.	.	.	.	.	.
.	.	.	.	.	.	.	.	.	.	.	.	.	.	.	.	.	8.E-\	Je-	.	8.E-/	Re-	.	8.G/	Re-	.
.	.	.	.	.	.	.	.	.	.	.	.	.	.	.	.	.	16E-\	-su	.	16E-/	-cor-	.	16G/	-cor-	.
=77	=77	=77	=77	=77	=77	=77	=77	=77	=77	=77	=77	=77	=77	=77	=77	=77	=77	=77	=77	=77	=77	=77	=77	=77	=77
2.r	.	2.r	.	2.r	2.r	.	2.r	.	2.r	.	2.r	.	2.r	.	2.r	.	4E-\	pie,	.	4.E-/	-da-	.	4.G/	-da-	.
.	.	.	.	.	.	.	.	.	.	.	.	.	.	.	.	.	4E-\	.	.	.	.	.	.	.	.
.	.	.	.	.	.	.	.	.	.	.	.	.	.	.	.	.	.	.	.	8F/	-re	.	8A-\	-re	.
.	.	.	.	.	.	.	.	.	.	.	.	.	.	.	.	.	8.E-\	quod	.	8.G/	Je-	.	8.B-\	Je-	.
.	.	.	.	.	.	.	.	.	.	.	.	.	.	.	.	.	16E-\	sum	.	16A-/	-su	.	16c\	-su	.
=78	=78	=78	=78	=78	=78	=78	=78	=78	=78	=78	=78	=78	=78	=78	=78	=78	=78	=78	=78	=78	=78	=78	=78	=78	=78
!	!	!	!	!	!	!	!	!	!	!	!	!	!	!	!	!LO:DY:rj	!	!	!	!	!	!	!	!	!
2E-\	.	2.r	.	2.r	2.r	.	2.r	.	2.r	.	2.r	.	(>8.G\L	.	(>8.B-\L	p	4.E-\	cau-	.	8.G/L	pie,	.	(>8.B-\L	pie,	.
.	.	.	.	.	.	.	.	.	.	.	.	.	16F\Jk)	.	16A-\Jk)	.	.	.	.	16F/Jk	.	.	16A-\Jk	.	.
.	.	.	.	.	.	.	.	.	.	.	.	.	4E-\	.	4G/	.	.	.	.	4E-/	quod	.	4G/)	.	.
.	.	.	.	.	.	.	.	.	.	.	.	.	.	.	.	.	8E-\	-sa	.	.	.	.	.	.	.
!	!	!	!	!	!	!	!	!	!	!	!	!	!	!	!	!	!	!	!	!LO:SIC:v=niejednoznaczne podłożenie tekstu	!	!	!LO:SIC:v=niejednoznaczne podłożenie tekstu	!	!
4r	.	.	.	.	.	.	.	.	.	.	.	.	4r	.	4r	.	8.E-\	tu-	.	8.E-/	.	.	8.G/	quod	.
.	.	.	.	.	.	.	.	.	.	.	.	.	.	.	.	.	16E-\	-æ	.	16E-/	sum	.	16G/	sum	.
=79	=79	=79	=79	=79	=79	=79	=79	=79	=79	=79	=79	=79	=79	=79	=79	=79	=79	=79	=79	=79	=79	=79	=79	=79	=79
2.r	.	2.r	.	2.r	2.r	.	2.r	.	2.r	.	2.r	.	2.r	.	2.r	.	4E-\	vi-	.	4.E-/	cau-	.	4.G/	cau-	.
.	.	.	.	.	.	.	.	.	.	.	.	.	.	.	.	.	4E-\	-æ,	.	.	.	.	.	.	.
.	.	.	.	.	.	.	.	.	.	.	.	.	.	.	.	.	.	.	.	8F/	-sa	.	8A-\	-sa	.
.	.	.	.	.	.	.	.	.	.	.	.	.	.	.	.	.	8.E-\	ne	.	8.G/	tu-	.	8.B-\	tu-	.
.	.	.	.	.	.	.	.	.	.	.	.	.	.	.	.	.	16E-\	me	.	16A-\	-æ,	.	16c\	-æ,	.
=80	=80	=80	=80	=80	=80	=80	=80	=80	=80	=80	=80	=80	=80	=80	=80	=80	=80	=80	=80	=80	=80	=80	=80	=80	=80
!LO:LB:g=original	!	!LO:LB:g=original	!	!LO:LB:g=original	!LO:LB:g=original	!	!LO:LB:g=original	!	!LO:LB:g=original	!	!LO:LB:g=original	!	!LO:LB:g=original	!	!LO:LB:g=original	!	!LO:LB:g=original	!	!	!LO:LB:g=original	!	!	!LO:LB:g=original	!	!
!	!	!	!	!	!	!	!	!	!	!	!	!	!	!	!LO:SIC:v:s= w źródle koniec łuku z poprzedniej strony	!	!	!	!	!	!	!	!	!	!
2E-\	.	2.E-X\	.	2.r	2.r	.	2.r	.	2.r	.	2.r	.	8.G\L	.	8.B-\L	.	2E-\	per-	.	8.G/L	vi-	.	8.B-\L	vi-	.
.	.	.	.	.	.	.	.	.	.	.	.	.	16F\Jk	.	16A-\Jk	.	.	.	.	16F/Jk	.	.	16A-\Jk	.	.
.	.	.	.	.	.	.	.	.	.	.	.	.	4E-\	.	4G/	.	.	.	.	4E-/	-tæ	.	4G/	-tæ	.
4E-\	.	.	.	.	.	.	.	.	.	.	.	.	8.G\L	.	8.e-\L	.	4E-\	-das	.	8.G/	ne	.	8.e-\	ne	.
.	.	.	.	.	.	.	.	.	.	.	.	.	16G\Jk	.	16e-\Jk	.	.	.	.	16G/	me	.	16e-\	me	.
=81	=81	=81	=81	=81	=81	=81	=81	=81	=81	=81	=81	=81	=81	=81	=81	=81	=81	=81	=81	=81	=81	=81	=81	=81	=81
2.E-\	.	4E-X\	.	2.r	2.r	.	2.r	.	2.r	.	2.r	.	4.G\	.	4.e-\	.	2E-\	il-	.	4.G/	per-	.	4.e-\	per-	.
.	.	4r	.	.	.	.	.	.	.	.	.	.	.	.	.	.	.	.	.	.	.	.	.	.	.
.	.	.	.	.	.	.	.	.	.	.	.	.	8B-\L	.	(>8d\L	.	.	.	.	8B-\	-das	.	8d\	-das	.
.	.	4r	.	.	.	.	.	.	.	.	.	.	8A-\	.	8c\	.	4E-\	-la	.	8A-\	il-	.	8c\	il-	.
.	.	.	.	.	.	.	.	.	.	.	.	.	[8G\J	.	8B-\J	.	.	.	.	8G/	-la	.	8B-\	-la	.
=82	=82	=82	=82	=82	=82	=82	=82	=82	=82	=82	=82	=82	=82	=82	=82	=82	=82	=82	=82	=82	=82	=82	=82	=82	=82
4.F\	.	2.r	.	2.r	2.r	.	2.r	.	2.r	.	2.r	.	8G\L]	.	8B-\L	.	4.F\	di-	.	8G/L	die	.	8B-\L	die.	.
.	.	.	.	.	.	.	.	.	.	.	.	.	8F\J	.	8A-\J)	.	.	.	.	8F/J	.	.	8A-\J	.	.
.	.	.	.	.	.	.	.	.	.	.	.	.	4F\	.	4A-\	.	.	.	.	4F/	.	.	4G/	.	.
8E-\	.	.	.	.	.	.	.	.	.	.	.	.	.	.	.	.	8E-\	-e	.	.	.	.	.	.	.
4D\	.	.	.	.	.	.	.	.	.	.	.	.	4F\	.	8.A-\L	.	8.D\	quæ-	.	8.F/	quæ-	.	8.A-\	quæ-	.
.	.	.	.	.	.	.	.	.	.	.	.	.	.	.	16B-\Jk	.	16D\	-rens	.	16F/	-rens	.	16B-\	-rens	.
=83	=83	=83	=83	=83	=83	=83	=83	=83	=83	=83	=83	=83	=83	=83	=83	=83	=83	=83	=83	=83	=83	=83	=83	=83	=83
*	*	*	*	*	*^	*	*	*	*	*	*	*	*	*	*	*	*	*	*	*	*	*	*	*	*
4.E-\	.	2.r	.	2.r	8e-X/L	8e-\L	.	2.r	.	2.r	.	2.r	.	4.E-\	.	4.G/	.	4.E-\	me	.	4.E-/	me	.	4.G/	me	.
.	.	.	.	.	16e-/L	16e-\L	.	.	.	.	.	.	.	.	.	.	.	.	.	.	.	.	.	.	.	.
.	.	.	.	.	16e-/JJ	16e-\JJ	.	.	.	.	.	.	.	.	.	.	.	.	.	.	.	.	.	.	.	.
.	.	.	.	.	8e-/	8e-\	.	.	.	.	.	.	.	.	.	.	.	.	.	.	.	.	.	.	.	.
8E-\L	.	.	.	.	8r	8ryy	.	.	.	.	.	.	.	8G\L	.	8e-\L	.	8E-\	se-	.	8G/	se-	.	8e-\	se-	.
8F\	.	.	.	.	4r	4ryy	.	.	.	.	.	.	.	8A-\	.	8d\	.	8F\	-di-	.	8A-/	-di-	.	8d\	-di-	.
8A-\J	.	.	.	.	.	.	.	.	.	.	.	.	.	8B-\J	.	8e-\J	.	8G\	-sti	.	8B-\	-sti	.	8e-\	-sti	.
*	*	*	*	*	*v	*v	*	*	*	*	*	*	*	*	*	*	*	*	*	*	*	*	*	*	*	*
=84	=84	=84	=84	=84	=84	=84	=84	=84	=84	=84	=84	=84	=84	=84	=84	=84	=84	=84	=84	=84	=84	=84	=84	=84	=84
2A-\	.	2.r	.	2.r	2.r	.	2.r	.	2.r	.	2.r	.	2A-\	.	8d\L	.	4A-\	las-	.	4A-\	las-	.	8d\L	las-	.
.	.	.	.	.	.	.	.	.	.	.	.	.	.	.	8c\J	.	.	.	.	.	.	.	8c\J	.	.
.	.	.	.	.	.	.	.	.	.	.	.	.	.	.	4c\	.	4A-\	-sus	.	4A-\	-sus	.	4c\	-sus	.
8A-\L	.	.	.	.	.	.	.	.	.	.	.	.	4c\	.	8f\L	.	8A-\	Re-	.	8c\	Re-	.	8f\	Re-	.
8An\J	.	.	.	.	.	.	.	.	.	.	.	.	.	.	8e-\J	.	8An\	-de-	.	8c\	-de-	.	8e-\	-de-	.
=85	=85	=85	=85	=85	=85	=85	=85	=85	=85	=85	=85	=85	=85	=85	=85	=85	=85	=85	=85	=85	=85	=85	=85	=85	=85
!	!	!	!	!	!	!	!	!LO:DY:b:rj	!	!LO:DY:b:rj	!	!LO:DY:b:rj	!	!	!	!	!	!	!	!	!	!	!	!	!
4B-\	.	2.r	.	2.r	2.r	.	2.BB-/	p	2.B-\	p	2.B-\	p	4.B-\	.	4.d\	.	4B-\	-mi-	.	4.B-\	-mi-	.	4.d\	-mi-	.
!	!LO:HP:b	!	!	!	!	!	!	!	!	!	!	!LO:HP:b	!	!	!	!	!	!	!	!	!	!	!	!	!
4BB-/	<	.	.	.	.	.	.	.	.	.	.	<	.	.	.	.	4BB-/	-sti	.	.	.	.	.	.	.
.	.	.	.	.	.	.	.	.	.	.	.	.	8A-\L	<	8d\L	.	.	.	.	8A-X\	-sti	.	8d\	-sti	.
4BB-/	.	.	.	.	.	.	.	.	.	.	.	.	8G-X\	.	8e-\	.	8BB-/	cru-	.	8G-X/	cru-	.	8e-\	cru-	<
.	.	.	.	.	.	.	.	.	.	.	.	.	[8G-\J	.	8e-\J	.	8BB-/	-cem	.	8G-/	-cem	.	8e-\	-cem	.
=86	=86	=86	=86	=86	=86	=86	=86	=86	=86	=86	=86	=86	=86	=86	=86	=86	=86	=86	=86	=86	=86	=86	=86	=86	=86
4BB-/	.	2.r	.	2.r	2.r	.	2.BB-/	.	2.B-\	.	2.B-\	.	8G-X\L]	[	8e-\L	.	4BB-/	pas-	.	8G-X/L	pas-	.	8e-\L	pas-	.
.	.	.	.	.	.	.	.	.	.	.	.	.	8F\J	.	8d\J	.	.	.	.	8F/J	.	.	8d\J	.	.
4BB-/	[	.	.	.	.	.	.	.	.	.	.	.	4F\	.	4d\	.	4BB-/	-sus	.	4F/	-sus	.	4d\	-sus	[
4BB-/	.	.	.	.	.	.	.	.	.	.	.	.	8A-\L	.	8f\L	.	8BB-/	tan-	.	8A-/	tan-	.	8f\	Tan-	.
.	.	.	.	.	.	.	.	.	.	.	.	[[	8G-\J	.	8e-\J	.	8BB-/	-tus	.	8G-/	-tus	.	8e-\	-tus	.
=87	=87	=87	=87	=87	=87	=87	=87	=87	=87	=87	=87	=87	=87	=87	=87	=87	=87	=87	=87	=87	=87	=87	=87	=87	=87
!	!	!	!	!	!	!	!	!	!	!	!	!	!	!	!	!	!	!	!	!LO:N:vis=4	!	!	!	!	!
4BB-/	.	2.r	.	2.r	2.r	.	2.BB-/	.	2.B-\	.	2.B-\	]	4.F\	.	4.d\	.	4BB-/	la-	.	4.F/	la-	.	4.d\	la-	.
4BB-/	.	.	.	.	.	.	.	.	.	.	.	.	.	.	.	.	4BB-/	-bor	.	.	.	.	.	.	.
.	.	.	.	.	.	.	.	.	.	.	.	.	8F\L	.	8d\L	.	.	.	.	8F/	-bor	.	8d\	-bor	.
4BB-/	.	.	.	.	.	.	.	.	.	.	.	.	8G-X\	.	8e-\	.	8BB-/	non	.	8G-X/	non	.	8e-\	non	.
.	.	.	.	.	.	.	.	.	.	.	.	.	[8G-\J	.	[8e-\J	.	8BB-/	sit	.	8G-/	sit	.	8e-\	sit	.
=88	=88	=88	=88	=88	=88	=88	=88	=88	=88	=88	=88	=88	=88	=88	=88	=88	=88	=88	=88	=88	=88	=88	=88	=88	=88
!	!	!	!	!	!	!	!	!	!	!LO:DY:b	!	!	!	!	!	!	!	!	!	!	!	!	!	!	!
4BB-/	.	2.r	.	2.r	2.r	.	4BB-/	.	4B-\	f	4B-\	.	8G-X\L]	.	8e-\L]	.	4BB-/	cas-	.	8G-X/L	cas-	.	(>8e-\L	cas-	.
.	.	.	.	.	.	.	.	.	.	.	.	.	8F\J	.	8d\J	.	.	.	.	8F/J	.	.	8d\J	.	.
4BB-/	.	.	.	.	.	.	4BB-/	.	4B-\	.	4B-\	.	4F\	.	4d\	.	4BB-/	-sus	.	4F/	-sus	.	4d\)	-sus	.
4r	.	.	.	.	.	.	4r	.	4r	.	4r	.	4r	.	4r	.	8.E-\	Ju-	.	4r	.	.	4r	.	.
.	.	.	.	.	.	.	.	.	.	.	.	.	.	.	.	.	16E-\	-ste	.	.	.	.	.	.	.
=89	=89	=89	=89	=89	=89	=89	=89	=89	=89	=89	=89	=89	=89	=89	=89	=89	=89	=89	=89	=89	=89	=89	=89	=89	=89
2.r	.	2.r	.	2.r	2.r	.	2.r	.	2.r	.	2.r	.	2.r	.	2.r	.	4.E-\	ju-	.	4r	.	.	4r	.	.
.	.	.	.	.	.	.	.	.	.	.	.	.	.	.	.	.	.	.	.	4r	.	.	4r	.	.
.	.	.	.	.	.	.	.	.	.	.	.	.	.	.	.	.	8E-\	-dex	.	.	.	.	.	.	.
!	!	!	!	!	!	!	!	!	!	!	!	!	!	!	!	!	!	!	!	!	!	!	!LO:TX:a:i:t=dolce	!	!
.	.	.	.	.	.	.	.	.	.	.	.	.	.	.	.	.	8.E-\	ulti	.	8.E-/	Ju-	.	8.G/	Ju-	.
.	.	.	.	.	.	.	.	.	.	.	.	.	.	.	.	.	16E-\	.	.	16E-/	-ste	.	16G/	-ste	.
=90	=90	=90	=90	=90	=90	=90	=90	=90	=90	=90	=90	=90	=90	=90	=90	=90	=90	=90	=90	=90	=90	=90	=90	=90	=90
2.r	.	2.r	.	2.r	2.r	.	2.r	.	2.r	.	2.r	.	2.r	.	2.r	.	4E-\	-o-	.	4.E-/	ju-	.	4.G/	ju-	.
.	.	.	.	.	.	.	.	.	.	.	.	.	.	.	.	.	4E-\	-nis,	.	.	.	.	.	.	.
.	.	.	.	.	.	.	.	.	.	.	.	.	.	.	.	.	.	.	.	8F/	-dex	.	8A-\	-dex	.
.	.	.	.	.	.	.	.	.	.	.	.	.	.	.	.	.	8.E-\	do-	.	8.G/	ul-	.	8.B-\	ul-	.
.	.	.	.	.	.	.	.	.	.	.	.	.	.	.	.	.	16E-\	-num	.	16A-/	-ti-	.	16c\	-ti-	.
=91	=91	=91	=91	=91	=91	=91	=91	=91	=91	=91	=91	=91	=91	=91	=91	=91	=91	=91	=91	=91	=91	=91	=91	=91	=91
2E-\	p	2.r	.	2.r	2.r	.	2.r	.	2.r	.	2.r	.	8.G\L	.	8.B-\L	.	4.E-\	fac	.	8.G/L	-o-	.	8.B-\L	-o-	.
.	.	.	.	.	.	.	.	.	.	.	.	.	16F\Jk	.	16A-\Jk	.	.	.	.	16F/Jk	.	.	16A-\Jk	.	.
.	.	.	.	.	.	.	.	.	.	.	.	.	4E-\	.	4G\	.	.	.	.	4E-/	-nis,	.	4G\	-nis,	.
.	.	.	.	.	.	.	.	.	.	.	.	.	.	.	.	.	8E-\	re-	.	.	.	.	.	.	.
4r	.	.	.	.	.	.	.	.	.	.	.	.	4r	.	4r	.	8.E-\	-mis-	.	8.E-/	do-	.	8.G/	do-	.
.	.	.	.	.	.	.	.	.	.	.	.	.	.	.	.	.	16E-\	-si-	.	16E-/	-num	.	16G/	-num	.
=92	=92	=92	=92	=92	=92	=92	=92	=92	=92	=92	=92	=92	=92	=92	=92	=92	=92	=92	=92	=92	=92	=92	=92	=92	=92
!LO:LB:g=original	!	!LO:LB:g=original	!	!LO:LB:g=original	!LO:LB:g=original	!	!LO:LB:g=original	!	!LO:LB:g=original	!	!LO:LB:g=original	!	!LO:LB:g=original	!	!LO:LB:g=original	!	!LO:LB:g=original	!	!	!LO:LB:g=original	!	!	!LO:LB:g=original	!	!
!	!	!	!LO:DY:b:rj	!	!	!	!	!	!	!	!	!	!	!	!	!	!	!	!	!LO:N:vis=4	!	!	!	!	!
2.r	.	16E-X\LL	p	2.r	2.r	.	2.r	.	2.r	.	2.r	.	2.r	.	2.r	.	4E-\	-o-	.	4.E-/	fac	.	4G/	fac	.
.	.	16E-\	.	.	.	.	.	.	.	.	.	.	.	.	.	.	.	.	.	.	.	.	.	.	.
.	.	16E-\	.	.	.	.	.	.	.	.	.	.	.	.	.	.	.	.	.	.	.	.	.	.	.
.	.	16E-\	.	.	.	.	.	.	.	.	.	.	.	.	.	.	.	.	.	.	.	.	.	.	.
.	.	16E-\	.	.	.	.	.	.	.	.	.	.	.	.	.	.	4E-\	-nis	.	.	.	.	4A-/	re-	.
.	.	16E-\	.	.	.	.	.	.	.	.	.	.	.	.	.	.	.	.	.	.	.	.	.	.	.
.	.	16E-\	.	.	.	.	.	.	.	.	.	.	.	.	.	.	.	.	.	8F/	re-	.	.	.	.
.	.	16E-\	.	.	.	.	.	.	.	.	.	.	.	.	.	.	.	.	.	.	.	.	.	.	.
.	.	16E-\	.	.	.	.	.	.	.	.	.	.	.	.	.	.	8.E-\	an-	.	8G/	-mis-	.	8.B-\	-mis-	.
.	.	16E-\	.	.	.	.	.	.	.	.	.	.	.	.	.	.	.	.	.	.	.	.	.	.	.
!	!	!	!	!	!	!	!	!	!	!	!	!	!	!	!	!	!	!	!	!LO:N:vis=16	!	!	!	!	!
.	.	16E-\	.	.	.	.	.	.	.	.	.	.	.	.	.	.	.	.	.	8A-/	-si-	.	.	.	.
.	.	16E-\JJ	.	.	.	.	.	.	.	.	.	.	.	.	.	.	16E-\	-te	.	.	.	.	16c\	-si-	.
=93	=93	=93	=93	=93	=93	=93	=93	=93	=93	=93	=93	=93	=93	=93	=93	=93	=93	=93	=93	=93	=93	=93	=93	=93	=93
2E-\	.	16E-X\LL	.	2.r	2.r	.	2.r	.	2.r	.	2.r	.	8.G\L	.	8.B-\L	.	2E-\	di-	.	8.G/L	-o-	.	8.B-\L	-o-	.
.	.	16E-\	.	.	.	.	.	.	.	.	.	.	.	.	.	.	.	.	.	.	.	.	.	.	.
.	.	16E-\	.	.	.	.	.	.	.	.	.	.	.	.	.	.	.	.	.	.	.	.	.	.	.
.	.	16E-\	.	.	.	.	.	.	.	.	.	.	16F\Jk	.	16A-\Jk	.	.	.	.	16F/Jk	.	.	16A-\Jk	.	.
.	.	16E-\	.	.	.	.	.	.	.	.	.	.	4E-\	.	4G/	.	.	.	.	4E-/	-nis	.	4G/	-nis	.
.	.	16E-\	.	.	.	.	.	.	.	.	.	.	.	.	.	.	.	.	.	.	.	.	.	.	.
.	.	16E-\	.	.	.	.	.	.	.	.	.	.	.	.	.	.	.	.	.	.	.	.	.	.	.
.	.	16E-\	.	.	.	.	.	.	.	.	.	.	.	.	.	.	.	.	.	.	.	.	.	.	.
4E-\	.	16E-\	.	.	.	.	.	.	.	.	.	.	8.G\L	.	8.e-\L	.	4E-\	-em	.	8.G/	an-	.	8.e-\	an-	.
.	.	16E-\	.	.	.	.	.	.	.	.	.	.	.	.	.	.	.	.	.	.	.	.	.	.	.
.	.	16E-\	.	.	.	.	.	.	.	.	.	.	.	.	.	.	.	.	.	.	.	.	.	.	.
.	.	16E-\JJ	.	.	.	.	.	.	.	.	.	.	16G\Jk	.	16e-\Jk	.	.	.	.	16G/	-te	.	16e-\	-te	.
=94	=94	=94	=94	=94	=94	=94	=94	=94	=94	=94	=94	=94	=94	=94	=94	=94	=94	=94	=94	=94	=94	=94	=94	=94	=94
2.E-\	.	4E-X\	.	2.r	2.r	.	2.r	.	2.r	.	2.r	.	4.G\	.	4.e-\	.	2E-\	ra-	.	4.G/	di-	.	4.e-\	di-	.
.	.	4r	.	.	.	.	.	.	.	.	.	.	.	.	.	.	.	.	.	.	.	.	.	.	.
.	.	.	.	.	.	.	.	.	.	.	.	.	8B-\L	.	8d\L	.	.	.	.	8B-/	-em	.	8d\	-em	.
.	.	4r	.	.	.	.	.	.	.	.	.	.	8A-\	.	8c\	.	4E-\	-ti-	.	8A-/	ra-	.	8c\	ra-	.
.	.	.	.	.	.	.	.	.	.	.	.	.	[8G\J	.	(>8B-\J	.	.	.	.	8G/	-ti-	.	[8B-\	-ti-	.
=95	=95	=95	=95	=95	=95	=95	=95	=95	=95	=95	=95	=95	=95	=95	=95	=95	=95	=95	=95	=95	=95	=95	=95	=95	=95
4.F\	.	2.r	.	2.r	2.r	.	2.r	.	2.r	.	2.r	.	8G\L]	.	8B-\L	.	4.F\	-o-	.	8G/L	-o-	.	8B-\L]	-o-	.
.	.	.	.	.	.	.	.	.	.	.	.	.	8F\J	.	8A-\J)	.	.	.	.	8F/J	.	.	8A-\J	.	.
.	.	.	.	.	.	.	.	.	.	.	.	.	4F\	.	4A-\	.	.	.	.	4F/	-nis,	.	4A-\	-nis,	.
8E-\	.	.	.	.	.	.	.	.	.	.	.	.	.	.	.	.	8E-\	-nis,	.	.	.	.	.	.	.
4D\	.	.	.	.	.	.	.	.	.	.	.	.	4F\	.	8.A-\L	.	8.D\	in-	.	8.F/	in-	.	8.A-\	in-	.
.	.	.	.	.	.	.	.	.	.	.	.	.	.	.	16B-\Jk	.	16D\	-ge-	.	16F/	-ge-	.	16B-\	-ge-	.
=96	=96	=96	=96	=96	=96	=96	=96	=96	=96	=96	=96	=96	=96	=96	=96	=96	=96	=96	=96	=96	=96	=96	=96	=96	=96
4.E-\	.	2.r	.	2.r	8e-X/L	.	2.r	.	2.r	.	2.r	.	4.E-\	.	4.G/	.	4.E-\	-mi-	.	4.E-/	-mi-	.	4.G/	-mi-	.
.	.	.	.	.	16e-/L	.	.	.	.	.	.	.	.	.	.	.	.	.	.	.	.	.	.	.	.
.	.	.	.	.	16e-/JJ	.	.	.	.	.	.	.	.	.	.	.	.	.	.	.	.	.	.	.	.
.	.	.	.	.	8e-/	.	.	.	.	.	.	.	.	.	.	.	.	.	.	.	.	.	.	.	.
8E-\L	.	.	.	.	8r	.	.	.	.	.	.	.	8G\L	.	8e-\L	.	8E-\	-sco	.	8G/	-sco	.	8e-\	-sco	.
8F\	.	.	.	.	4r	.	.	.	.	.	.	.	8A-\	.	8d\	.	8F\	tam-	.	8A-/	tam-	.	8d\	tam-	.
8G\J	.	.	.	.	.	.	.	.	.	.	.	.	8B-\J	.	8e-\J	.	8G\	-quam	.	8B-\	-quam	.	8e-\	-quam	.
=97	=97	=97	=97	=97	=97	=97	=97	=97	=97	=97	=97	=97	=97	=97	=97	=97	=97	=97	=97	=97	=97	=97	=97	=97	=97
2A-\	.	2.r	.	2.r	2.r	.	2.r	.	2.r	.	2.r	.	2A-\	.	8d\L	.	4A-\	re-	.	4A-\	re-	.	8d\L	re-	<
.	.	.	.	.	.	.	.	.	.	.	.	.	.	.	8c\J	.	.	.	.	.	.	.	8c\J	.	.
.	.	.	.	.	.	.	.	.	.	.	.	.	.	.	4c\	.	4A-\	-us	.	4A-\	-us	.	4c\	-us	.
(>8A-\L	.	.	.	.	.	.	.	.	.	.	.	.	4c\	.	8f\L	.	8A-\	cul-	.	8c\	cul-	.	8f\	cul-	.
8An\J	.	.	.	.	.	.	.	.	.	.	.	.	.	.	[8e-\J	.	8An\	-pa	.	8c\	-pa	.	8e-\	-pa	.
=98	=98	=98	=98	=98	=98	=98	=98	=98	=98	=98	=98	=98	=98	=98	=98	=98	=98	=98	=98	=98	=98	=98	=98	=98	=98
!!pagebreak:original
4.B-\)	.	2.r	.	2.r	2.r	.	2.r	.	2.r	.	2.r	.	8c\L	.	8e-\L]	.	4.B-\	ru-	.	8c\L	ru-	.	8e-\L	ru-	.
.	.	.	.	.	.	.	.	.	.	.	.	.	8B-\J	.	8d\J	.	.	.	.	8B-\J	.	.	8d\J	.	.
.	.	.	.	.	.	.	.	.	.	.	.	.	4B-\	.	4d\	.	.	.	.	4B-\	-bet	.	4d\	-bet	[
8A-X\	.	.	.	.	.	.	.	.	.	.	.	.	.	.	.	.	8A-X\	-bet	.	.	.	.	.	.	.
4G\	.	.	.	.	.	.	.	.	.	.	.	.	[4B-\	.	8e-\L	.	8G\	vul-	.	8B-\	vul-	.	8e-\	vul-	.
.	.	.	.	.	.	.	.	.	.	.	.	.	.	.	[8d\J	.	8G\	-tus	.	8B-\	-tus	.	(>8d\	-tus	.
=99	=99	=99	=99	=99	=99	=99	=99	=99	=99	=99	=99	=99	=99	=99	=99	=99	=99	=99	=99	=99	=99	=99	=99	=99	=99
2A-\	.	2.r	.	2.r	2.r	.	2.r	.	2.r	.	2.r	.	8B-\L]	.	8d\L]	.	4A-\	me-	.	8B-\L	me-	.	8d\L	me-	.
.	.	.	.	.	.	.	.	.	.	.	.	.	8A-\J	.	8c\J	.	.	.	.	8A-\J	.	.	8c\J)	.	.
.	.	.	.	.	.	.	.	.	.	.	.	.	4A-\	.	4c\	.	4A-\	-us,	.	4A-\	-us,	.	4c\	-us,	.
!	!	!	!	!	!	!	!	!	!	!	!	!	!LO:N:vis=8	!	!	!	!	!	!	!	!	!	!	!	!
4AA-/	.	.	.	.	.	.	.	.	.	.	.	.	8.c\L	.	8.a-\L	.	8.AA-/	sup-	.	8.c\	sup-	.	8.a-\	sup-	.
.	.	.	.	.	.	.	.	.	.	.	.	.	16A-\Jk	.	16f\Jk	.	16AA-/	-pli-	.	16A-\	-pli-	.	16f\	-pli-	.
=100	=100	=100	=100	=100	=100	=100	=100	=100	=100	=100	=100	=100	=100	=100	=100	=100	=100	=100	=100	=100	=100	=100	=100	=100	=100
2BB-/	.	2.r	.	2.r	2.r	.	2.r	.	2.r	.	2.r	.	4.G\	.	4.e-\	.	4.BB-/	-can-	.	4.G/	-can-	.	4.e-\	-can-	.
.	.	.	.	.	.	.	.	.	.	.	.	.	8G\L	.	8e-\L	.	8BB-/	-ti	.	8G/	-ti	.	8e-\	-ti	.
8BB-/L	.	.	.	.	.	.	.	.	.	.	.	.	8.F\	.	8.d\	.	8.BB-/	par-	.	8.F/	par-	.	8.d\	par-	.
8BBn/J	.	.	.	.	.	.	.	.	.	.	.	.	.	.	.	.	.	.	.	.	.	.	.	.	.
.	.	.	.	.	.	.	.	.	.	.	.	.	16A-\Jk	.	16d\Jk	.	16BB-/	-ce	.	16A-\	-ce	.	16d\	-ce	.
=101	=101	=101	=101	=101	=101	=101	=101	=101	=101	=101	=101	=101	=101	=101	=101	=101	=101	=101	=101	=101	=101	=101	=101	=101	=101
2C/	.	2.r	.	2.r	2.r	.	2C/	.	4r	.	4r	.	8A-\L	.	(>8d\L	.	4C/	De-	.	8A-\L	De-	.	8d\L	De-	.
.	.	.	.	.	.	.	.	.	.	.	.	.	8G\J	.	8e-\J)	.	.	.	.	8G/J	.	.	8e-\J	.	.
.	.	.	.	.	.	.	.	.	4r	.	4r	.	4G\	.	4e-\	.	4C/	-us	.	4G/	-us	.	4e-\	-us	.
4AA-/	.	.	.	.	.	.	4AA-/	.	4A-\	.	4c\	.	8.c\L	.	8.a-\L	.	8.AA-/	sup-	.	8.c\	sup-	.	8.a-\	sup-	.
.	.	.	.	.	.	.	.	.	.	.	.	.	16A-\Jk	.	16f\Jk	.	16AA-/	-pli-	.	16A-\	-pli-	.	16f\	-pli-	.
=102	=102	=102	=102	=102	=102	=102	=102	=102	=102	=102	=102	=102	=102	=102	=102	=102	=102	=102	=102	=102	=102	=102	=102	=102	=102
!	!	!	!	!	!	!	!	!	!	!	!LO:N:vis=2	!	!LO:N:vis=2	!	!	!	!	!	!	!	!	!	!	!	!
[2.BB-/	.	2.r	.	2.r	2.r	.	2.BB-/	.	[2.G/	.	[2.B-\	.	[2.G\	.	2e-\	.	2BB-/	-can-	.	2G/	-can-	.	2e-\	-can-	.
.	.	.	.	.	.	.	.	.	.	.	.	.	.	.	[4B-\	.	4BB-/	-ti	.	[>4G/	-ti	.	[4B-\	-ti	.
=103	=103	=103	=103	=103	=103	=103	=103	=103	=103	=103	=103	=103	=103	=103	=103	=103	=103	=103	=103	=103	=103	=103	=103	=103	=103
!	!	!	!	!	!	!	!	!	!	!	!LO:N:vis=4	!	!	!	!	!	!	!	!	!	!	!	!	!	!
2.BB-/]	.	2.r	.	2.r	2.r	.	2.BB-/	.	4.G/]	.	4.B-\]	.	4.G\]	.	4.B-\]	.	2BB-/	par-	.	4.G/]	.	.	4.B-\]	.	.
.	.	.	.	.	.	.	.	.	8A-/	.	8c\	.	8A-\	.	8c\	.	.	.	.	8A-\	par-	.	8c\	par-	.
.	.	.	.	.	.	.	.	.	4F/	.	4d\	.	4F\	.	4d\	.	4BB-/	-ce	.	4F/	-ce	.	4d\	-ce	.
=104	=104	=104	=104	=104	=104	=104	=104	=104	=104	=104	=104	=104	=104	=104	=104	=104	=104	=104	=104	=104	=104	=104	=104	=104	=104
!LO:LB:g=original	!	!LO:LB:g=original	!	!LO:LB:g=original	!LO:LB:g=original	!	!LO:LB:g=original	!	!LO:LB:g=original	!	!LO:LB:g=original	!	!LO:LB:g=original	!	!LO:LB:g=original	!	!LO:LB:g=original	!	!	!LO:LB:g=original	!	!	!LO:LB:g=original	!	!
2.E-\	.	2.r	.	2.r	2.r	.	2.E-\	.	2.G/	.	[2.e-\	.	2.G\	.	2.e-\	.	2.E-\	De-	.	2.G/	De-	.	2.e-\	De-	.
=105	=105	=105	=105	=105	=105	=105	=105	=105	=105	=105	=105	=105	=105	=105	=105	=105	=105	=105	=105	=105	=105	=105	=105	=105	=105
2E-\	.	2.r	.	2.r	2.r	.	2E-\	.	2G/	.	2e-\]	.	2G\	.	2e-\	.	2E-\	-us	.	2G/	-us	.	2e-\	-us	.
4r	.	.	.	.	.	.	4r	.	4r	.	4r	.	4r	.	4r	.	8.A-\	Qui	.	4r	.	.	4r	.	.
.	.	.	.	.	.	.	.	.	.	.	.	.	.	.	.	.	16A-\	Ma-	.	.	.	.	.	.	.
=106	=106	=106	=106	=106	=106	=106	=106	=106	=106	=106	=106	=106	=106	=106	=106	=106	=106	=106	=106	=106	=106	=106	=106	=106	=106
!	!	!	!	!	!	!	!	!	!	!	!	!	!	!	!	!	!	!	!	!	!	!	!LO:TX:a:i:t=sotta voce dolce	!	!
2.r	.	2.r	.	2.r	2.r	.	2.r	.	2.r	.	2.r	.	2.r	.	2.r	.	2A-\	-ri-	.	4r	.	.	4r	.	.
.	.	.	.	.	.	.	.	.	.	.	.	.	.	.	.	.	.	.	.	4r	.	.	4r	.	.
.	.	.	.	.	.	.	.	.	.	.	.	.	.	.	.	.	4A-\	-am	.	8.A-\	Qui	.	8.c\	Qui	.
.	.	.	.	.	.	.	.	.	.	.	.	.	.	.	.	.	.	.	.	16A-\	Ma-	.	16c\	Ma-	.
=107	=107	=107	=107	=107	=107	=107	=107	=107	=107	=107	=107	=107	=107	=107	=107	=107	=107	=107	=107	=107	=107	=107	=107	=107	=107
2.r	.	2.r	.	2.r	2.r	.	2.r	.	2.r	.	2.r	.	2.r	.	2.r	.	2AA-/	ab-	.	2c\	-ri-	.	2e-\	-ri-	.
.	.	.	.	.	.	.	.	.	.	.	.	.	.	.	.	.	4C/	-sol-	.	4A-\	-am	.	4c\	-am	.
=108	=108	=108	=108	=108	=108	=108	=108	=108	=108	=108	=108	=108	=108	=108	=108	=108	=108	=108	=108	=108	=108	=108	=108	=108	=108
2.r	.	2.r	.	2.r	2.r	.	2.r	.	2.r	.	2.r	.	2.r	.	2.r	.	2.E-\	-vi-	.	(>4G/	ab-	.	(>4B-\	ab-	.
.	.	.	.	.	.	.	.	.	.	.	.	.	.	.	.	.	.	.	.	4F/)	.	.	4A-\)	.	.
.	.	.	.	.	.	.	.	.	.	.	.	.	.	.	.	.	.	.	.	4G/	-sol-	.	4B-\	-sol-	.
=109	=109	=109	=109	=109	=109	=109	=109	=109	=109	=109	=109	=109	=109	=109	=109	=109	=109	=109	=109	=109	=109	=109	=109	=109	=109
2.r	.	2.r	.	2.r	2.r	.	2.r	.	2.r	.	2.r	.	2.r	.	2.r	.	2AA-/	-sti	.	(>2.A-/	-vi-	.	2.c\	-vi-	.
.	.	.	.	.	.	.	.	.	.	.	.	.	.	.	.	.	8.A-\	et	.	.	.	.	.	.	.
.	.	.	.	.	.	.	.	.	.	.	.	.	.	.	.	.	16A-\	la-	.	.	.	.	.	.	.
=110	=110	=110	=110	=110	=110	=110	=110	=110	=110	=110	=110	=110	=110	=110	=110	=110	=110	=110	=110	=110	=110	=110	=110	=110	=110
2.r	.	2.r	.	2.r	2.r	.	2.r	.	2.r	.	2.r	.	2.r	.	2.r	.	2A-\	-tro-	.	2c\)	-sti	.	2A-\	-sti,	.
.	.	.	.	.	.	.	.	.	.	.	.	.	.	.	.	.	4A-\	-nem	.	8.A-\	et	.	8.c\	et	.
.	.	.	.	.	.	.	.	.	.	.	.	.	.	.	.	.	.	.	.	16A-\	la-	.	16c\	la-	.
=111	=111	=111	=111	=111	=111	=111	=111	=111	=111	=111	=111	=111	=111	=111	=111	=111	=111	=111	=111	=111	=111	=111	=111	=111	=111
2.r	.	2.r	.	2.r	2.r	.	2.r	.	2.r	.	2.r	.	2.r	.	2.r	.	2AA-/	e-	.	2c\	-tro-	.	2e-\	-tro-	.
.	.	.	.	.	.	.	.	.	.	.	.	.	.	.	.	.	4C/	-xau-	.	4A-/	-nem	.	4c\	-nem	.
=112	=112	=112	=112	=112	=112	=112	=112	=112	=112	=112	=112	=112	=112	=112	=112	=112	=112	=112	=112	=112	=112	=112	=112	=112	=112
2.r	.	2.r	.	2.r	2.r	.	2.r	.	2.r	.	2.r	.	2.r	.	2.r	.	2.E-\	-di-	.	(<4G/	e-	.	(>4B-\	e-	.
.	.	.	.	.	.	.	.	.	.	.	.	.	.	.	.	.	.	.	.	4F/)	.	.	4A-\)	.	.
.	.	.	.	.	.	.	.	.	.	.	.	.	.	.	.	.	.	.	.	4G/	-xau-	.	4B-\	-xau-	.
=113	=113	=113	=113	=113	=113	=113	=113	=113	=113	=113	=113	=113	=113	=113	=113	=113	=113	=113	=113	=113	=113	=113	=113	=113	=113
2.r	.	2.r	.	2.r	2.r	.	2.r	.	2.r	.	2.r	.	2.r	.	2.r	.	2AA-/	-sti	.	2.A-\	-di-	.	2.c\	-di-	.
.	.	.	.	.	.	.	.	.	.	.	.	.	.	.	.	.	8.F\	mi-	.	.	.	.	.	.	.
.	.	.	.	.	.	.	.	.	.	.	.	.	.	.	.	.	16F\	-hi	.	.	.	.	.	.	.
=114	=114	=114	=114	=114	=114	=114	=114	=114	=114	=114	=114	=114	=114	=114	=114	=114	=114	=114	=114	=114	=114	=114	=114	=114	=114
2.r	.	2.r	.	2.r	2.r	.	2.r	.	2.r	.	2.r	.	2.r	.	2.r	.	2F\	quo-	.	2c\	-sti	.	2A-\	-sti,	.
.	.	.	.	.	.	.	.	.	.	.	.	.	.	.	.	.	4F\	-que	.	8.F/	mi-	.	8.A-\	mi-	.
.	.	.	.	.	.	.	.	.	.	.	.	.	.	.	.	.	.	.	.	16F/	-hi	.	16A-\	-hi	.
=115	=115	=115	=115	=115	=115	=115	=115	=115	=115	=115	=115	=115	=115	=115	=115	=115	=115	=115	=115	=115	=115	=115	=115	=115	=115
2.r	.	2.r	.	2.r	2.r	.	2.r	.	2.r	.	2.r	.	2.r	.	2.r	.	2FF/ 2F/	spem	.	2A-\	quo-	.	2c\	quo-	.
.	.	.	.	.	.	.	.	.	.	.	.	.	.	.	.	.	4AA-/ 4F/	de-	.	4F/	-que	.	4A-\	-que	.
=116	=116	=116	=116	=116	=116	=116	=116	=116	=116	=116	=116	=116	=116	=116	=116	=116	=116	=116	=116	=116	=116	=116	=116	=116	=116
*	*	*	*	*	*	*	*	*	*	*	*	*	*	*	*	*	*^	*	*	*	*	*	*	*	*
2.r	.	2.r	.	2.r	2.r	.	2.r	.	2.r	.	2.r	.	2.r	.	2.r	.	2.C/	2.C\	-di-	.	(<4En/	spem	.	(>4G/	spem	.
.	.	.	.	.	.	.	.	.	.	.	.	.	.	.	.	.	.	.	.	.	4D/)	.	.	4F/)	.	.
.	.	.	.	.	.	.	.	.	.	.	.	.	.	.	.	.	.	.	.	.	4E/	de-	.	4G/	de-	.
*	*	*	*	*	*	*	*	*	*	*	*	*	*	*	*	*	*v	*v	*	*	*	*	*	*	*	*
=117	=117	=117	=117	=117	=117	=117	=117	=117	=117	=117	=117	=117	=117	=117	=117	=117	=117	=117	=117	=117	=117	=117	=117	=117	=117
!!pagebreak:original
4r	.	2.r	.	2.r	2.r	.	2.r	.	2.r	.	2.r	.	2.r	.	2.r	.	2F\	-sti	.	2.F/	-di-	.	2.A-\	-di-	.
4r	.	.	.	.	.	.	.	.	.	.	.	.	.	.	.	.	.	.	.	.	.	.	.	.	.
8.F\L	.	.	.	.	.	.	.	.	.	.	.	.	.	.	.	.	8.F\	par-	.	.	.	.	.	.	.
16F\Jk	.	.	.	.	.	.	.	.	.	.	.	.	.	.	.	.	16F\	-ces	.	.	.	.	.	.	.
=118	=118	=118	=118	=118	=118	=118	=118	=118	=118	=118	=118	=118	=118	=118	=118	=118	=118	=118	=118	=118	=118	=118	=118	=118	=118
2.F\	.	2.r	.	2.r	2.r	.	2.r	.	2.r	.	2.r	.	4r	.	4r	.	4.F\	me-	.	2A-/	-sti	.	2F/	-sti	.
.	.	.	.	.	.	.	.	.	.	.	.	.	4r	.	4r	.	.	.	.	.	.	.	.	.	.
.	.	.	.	.	.	.	.	.	.	.	.	.	.	.	.	.	8F\	-æ	.	.	.	.	.	.	.
.	.	.	.	.	.	.	.	.	.	.	.	.	8.F\L	.	8.A-\L	.	8.F\	non	.	8.F/	pre-	.	8.A-\	pre-	.
.	.	.	.	.	.	.	.	.	.	.	.	.	16F\Jk	.	16A-\Jk	.	16F\	sunt	.	16F/	-ces	.	16A-\	-ces	.
=119	=119	=119	=119	=119	=119	=119	=119	=119	=119	=119	=119	=119	=119	=119	=119	=119	=119	=119	=119	=119	=119	=119	=119	=119	=119
2BB-/	.	2.r	.	2.r	2.r	.	2.r	.	2.r	.	2.r	.	2.F\	.	4.d-X\	.	4BB-/	di-	.	4.F/	me-	.	4.d-X\	me-	.
.	.	.	.	.	.	.	.	.	.	.	.	.	.	.	.	.	4BB-/	-gnæ,	.	.	.	.	.	.	.
.	.	.	.	.	.	.	.	.	.	.	.	.	.	.	8c\L	.	.	.	.	8F/	-æ	.	8c\	-æ	.
4D-X\	.	.	.	.	.	.	.	.	.	.	.	.	.	.	8B-\	.	8D-X\	sed	.	8F/	non	.	8B-\	non	.
.	.	.	.	.	.	.	.	.	.	.	.	.	.	.	8A-\J	.	8D-\	tu	.	8F/	sunt	.	8A-\	sunt	.
=120	=120	=120	=120	=120	=120	=120	=120	=120	=120	=120	=120	=120	=120	=120	=120	=120	=120	=120	=120	=120	=120	=120	=120	=120	=120
!LO:LB:g=original	!LO:HP:b	!LO:LB:g=original	!	!LO:LB:g=original	!LO:LB:g=original	!	!LO:LB:g=original	!	!LO:LB:g=original	!	!	!	!LO:LB:g=original	!	!LO:LB:g=original	!	!LO:LB:g=original	!	!	!LO:LB:g=original	!	!	!LO:LB:g=original	!	!
2.E-\	<	2.r	.	2.r	2.r	.	4r	.	4r	.	4r	.	4E-\	.	(<8A-\L	.	4E-\	di-	.	4E-/	di-	.	(>8A-L\	di-	<
.	.	.	.	.	.	.	.	.	.	.	.	.	.	.	8G/J	.	.	.	.	.	.	.	8G/J)	.	.
.	.	.	.	.	.	.	4r	.	4r	.	4r	.	4E-\	.	4G/)	.	4E-\	-gnæ	.	4E-/	-gnæ	.	4G/	-gnæ	.
.	.	.	.	.	.	.	4E-\	.	4G/	.	4B-\	.	8G\L	.	8B-\L	.	8E-\	tu	.	8G/	Sed	.	8B-\	Sed	.
.	.	.	.	.	.	.	.	.	.	.	.	.	8G\J	.	8B-\J	.	8E-\	be-	.	8G/	tu	.	8B-\	tu	[[
=121	=121	=121	=121	=121	=121	=121	=121	=121	=121	=121	=121	=121	=121	=121	=121	=121	=121	=121	=121	=121	=121	=121	=121	=121	=121
2E-\	.	2.r	.	2.r	2.r	.	2E-\	.	(<2.G/	.	4.e-\	.	2.G\	.	4.e-\	.	2E-\	-ni-	.	4.G/	bo-	.	4.e-\	bo-	f
.	[	.	.	.	.	.	.	.	.	.	(>8d-X\L	.	.	.	8d-X\L	.	.	.	.	8G/	-nus	.	8d-X\	-nus	.
4En\	.	.	.	.	.	.	4En\	.	.	.	8c\	.	.	.	8c\	.	4En\	-gne	.	8G/	fac	.	8c\	fac	.
.	.	.	.	.	.	.	.	.	.	.	[8B-\J)	.	.	.	8B-\J	.	.	.	.	8G/	be-	.	8B-\	be-	.
=122	=122	=122	=122	=122	=122	=122	=122	=122	=122	=122	=122	=122	=122	=122	=122	=122	=122	=122	=122	=122	=122	=122	=122	=122	=122
2.F\	.	2.r	.	2.r	4r	.	2.F\	.	8G/L	.	8B-\L]	.	8G\L	.	8B-\L	.	2F\	Ne	.	8G/L	-ni-	.	(>8B-\L	-ni-	.
.	.	.	.	.	.	.	.	.	8F/J)	.	8A-\J	.	8F\J	.	8A-\J	.	.	.	.	8F/J	.	.	8A-\J)	.	.
.	.	.	.	.	4r	.	.	.	4F/	.	4A-\	.	4F\	.	4A-\	.	.	.	.	4F/	-gne	.	4A-\	-gne	.
.	.	.	.	.	8.F/L 8.f/	.	.	.	4A-/	.	4c\	.	8A-\L	.	8c\L	.	4F\	per-	.	8A-\	Ne	.	8c\	Ne	.
.	.	.	.	.	.	.	.	.	.	.	.	.	8A-\J	.	8c\J	.	.	.	.	8A-\	pe-	.	8c\	pe-	.
.	.	.	.	.	16F/Jk 16f/	.	.	.	.	.	.	.	.	.	.	.	.	.	.	.	.	.	.	.	.
=123	=123	=123	=123	=123	=123	=123	=123	=123	=123	=123	=123	=123	=123	=123	=123	=123	=123	=123	=123	=123	=123	=123	=123	=123	=123
2F\	.	2.r	.	2.r	2F/ 2f/	.	2F\	.	2A-/	.	(>4.f\	.	2A-\	.	(>4.f\	.	8F\	-en-	.	4.A-\	-ren-	.	4.f\	-ren-	.
.	.	.	.	.	.	.	.	.	.	.	.	.	.	.	.	.	8F\	-ni	.	.	.	.	.	.	.
.	.	.	.	.	.	.	.	.	.	.	.	.	.	.	.	.	4.F\	cre-	.	.	.	.	.	.	.
!	!	!	!	!	!	!	!	!	!	!	!	!	!	!	!	!LO:HP:b	!	!	!	!	!	!	!	!	!
.	.	.	.	.	.	.	.	.	.	.	8e-\L	.	.	.	8e-\L	<	.	.	.	8A-\	-ni	.	8e-\	-ni	.
8F\L	.	.	.	.	4r	.	8F\L	.	8A-\L	.	8dn\	.	8A-\L	.	8d\	.	.	.	.	8A-\	cre-	.	8d\	cre-	<
8F#X\J	.	.	.	.	.	.	8F#X\J	.	8An\J	.	8c\J)	.	8An\J	.	8c\J)	.	8F#X\	-mer	.	8An\	-mer	.	8c\	-mer	.
=124	=124	=124	=124	=124	=124	=124	=124	=124	=124	=124	=124	=124	=124	=124	=124	=124	=124	=124	=124	=124	=124	=124	=124	=124	=124
4G\	.	16GG/LL	.	2.G/ 2.g/	2.r	.	2G\	.	2G/	.	8c\L	.	4G\	.	8c\L	.	4G\	i-	.	4G/	i-	.	8c\L	i-	.
.	.	16GG/	.	.	.	.	.	.	.	.	.	.	.	.	.	.	.	.	.	.	.	.	.	.	.
.	.	16GG/	.	.	.	.	.	.	.	.	8Bn\J	.	.	.	8Bn\J	.	.	.	.	.	.	.	8Bn\J	.	.
.	.	16GG/	.	.	.	.	.	.	.	.	.	.	.	.	.	.	.	.	.	.	.	.	.	.	.
4G\	.	16GG/	.	.	.	.	.	.	.	.	4B\	.	4G\	.	4B\	[	4G\	-gne	.	4G/	-gne,	.	4B\	-gne.	.
.	.	16GG/	.	.	.	.	.	.	.	.	.	.	.	.	.	.	.	.	.	.	.	.	.	.	.
.	.	16GG/	.	.	.	.	.	.	.	.	.	.	.	.	.	.	.	.	.	.	.	.	.	.	.
.	.	16GG/	.	.	.	.	.	.	.	.	.	.	.	.	.	.	.	.	.	.	.	.	.	.	.
8.BBn/L	ff	16GG/	.	.	.	.	4BBn/	.	4G/	.	4d\	.	8.G\L	.	8.d\L	.	8.BBn/	in-	.	8.G/	in-	.	8.d\	in-	.
.	.	16GG/	.	.	.	.	.	.	.	.	.	.	.	.	.	.	.	.	.	.	.	.	.	.	.
.	.	16GG/	.	.	.	.	.	.	.	.	.	.	.	.	.	.	.	.	.	.	.	.	.	.	.
16BB/Jk	.	16GG/JJ	.	.	.	.	.	.	.	.	.	.	16G\Jk	.	16d\Jk	.	16BB/	-ter	.	16G/	-ter	.	16d\	-ter	[[
=125	=125	=125	=125	=125	=125	=125	=125	=125	=125	=125	=125	=125	=125	=125	=125	=125	=125	=125	=125	=125	=125	=125	=125	=125	=125
!	!	!	!	!	!	!	!	!	!	!	!	!	!	!	!	!LO:DY:b	!	!	!	!	!	!	!	!	!
4.C/	.	16GG/LL	.	8.r	8.r	.	4.C/	.	2.G/	.	4.e-\	.	8G\L	.	4.e-\	f	4.C/	o-	.	8G/	o-	.	4.e-\	o-	ff
.	.	16GG/	.	.	.	.	.	.	.	.	.	.	.	.	.	.	.	.	.	.	.	.	.	.	.
.	.	16GG/	.	.	.	.	.	.	.	.	.	.	8G\J	.	.	.	.	.	.	8G/	-ves	.	.	.	.
*	*	*	*	*	*^	*	*	*	*	*	*	*	*	*	*	*	*	*	*	*	*	*	*	*	*
.	.	16GG/	.	16G/ 16g/	16g/	16g\	.	.	.	.	.	.	.	.	.	.	.	.	.	.	.	.	.	.	.	.
!	!	!	!	!	!	!	!	!	!	!	!	!	!	!LO:N:vis=4	!	!	!	!	!	!	!	!	!	!	!	!
.	.	16GG/	.	4G/ 4g/	4g/	4g\	.	.	.	.	.	.	.	4.G\	.	.	.	.	.	.	4.G/	lo-	.	.	.	.
.	.	16GG/	.	.	.	.	.	.	.	.	.	.	.	.	.	.	.	.	.	.	.	.	.	.	.	.
8BBn/	.	16GG/	.	.	.	.	.	8BBn/	.	.	.	8d\	.	.	.	8d\L	.	8BBn/	-ves	.	.	.	.	8d\	-ves	.
.	.	16GG/	.	.	.	.	.	.	.	.	.	.	.	.	.	.	.	.	.	.	.	.	.	.	.	.
8C/L	.	16GG/	.	4r	4r	4ryy	.	4C/	.	.	.	[4e-\	.	.	.	8e-\	.	8C/	lo-	.	.	.	.	8e-\	lo-	.
.	.	16GG/	.	.	.	.	.	.	.	.	.	.	.	.	.	.	.	.	.	.	.	.	.	.	.	.
8C/J	.	16GG/	.	.	.	.	.	.	.	.	.	.	.	8G\	.	[8e-\J	.	8C/	-cum	.	8G/	-cum	.	8e-\	-cum	.
.	.	16GG/JJ	.	.	.	.	.	.	.	.	.	.	.	.	.	.	.	.	.	.	.	.	.	.	.	.
*	*	*	*	*	*v	*v	*	*	*	*	*	*	*	*	*	*	*	*	*	*	*	*	*	*	*	*
=126	=126	=126	=126	=126	=126	=126	=126	=126	=126	=126	=126	=126	=126	=126	=126	=126	=126	=126	=126	=126	=126	=126	=126	=126	=126
!!pagebreak:original
8C/L	.	16GG/LL	.	2.G/ 2.g/	2.r	.	8C/L	.	2G/	.	8e-\L]	.	4G\	.	8e-\L]	.	8C/L	prae-	.	4G/	prae-	.	8e-\L	prae-	.
.	.	16GG/	.	.	.	.	.	.	.	.	.	.	.	.	.	.	.	.	.	.	.	.	.	.	.
8BBn/J	.	16GG/	.	.	.	.	8BBn/J	.	.	.	8d\J	.	.	.	8d\J	.	8BBn/J	.	.	.	.	.	8d\J	.	.
.	.	16GG/	.	.	.	.	.	.	.	.	.	.	.	.	.	.	.	.	.	.	.	.	.	.	.
4BB/	.	16GG/	.	.	.	.	4BB/	.	.	.	4d\	.	4G\	.	4d\	.	4BB/	-sta,	.	4G/	-sta,	.	4d\	-sta,	.
.	.	16GG/	.	.	.	.	.	.	.	.	.	.	.	.	.	.	.	.	.	.	.	.	.	.	.
.	.	16GG/	.	.	.	.	.	.	.	.	.	.	.	.	.	.	.	.	.	.	.	.	.	.	.
.	.	16GG/	.	.	.	.	.	.	.	.	.	.	.	.	.	.	.	.	.	.	.	.	.	.	.
8BB/L	.	16GG/	.	.	.	.	4BB/	.	4G/	.	4d\	.	8G\L	.	8d\L	.	8BB/	et	.	8G/	et	.	8d\	et	.
.	.	16GG/	.	.	.	.	.	.	.	.	.	.	.	.	.	.	.	.	.	.	.	.	.	.	.
8BB/J	.	16GG/	.	.	.	.	.	.	.	.	.	.	8G\J	.	8d\J	.	8BB/	ab	.	8G/	ab	.	8d\	ab	.
.	.	16GG/JJ	.	.	.	.	.	.	.	.	.	.	.	.	.	.	.	.	.	.	.	.	.	.	.
=127	=127	=127	=127	=127	=127	=127	=127	=127	=127	=127	=127	=127	=127	=127	=127	=127	=127	=127	=127	=127	=127	=127	=127	=127	=127
4.C/	.	16GG/LL	.	8.r	8.r	.	4.C/	.	2G/	.	4.e-\	.	8G\L	.	4.e-\	.	4.C/	hæ-	.	8G/	hæ-	.	4.e-\	hæ-	.
.	.	16GG/	.	.	.	.	.	.	.	.	.	.	.	.	.	.	.	.	.	.	.	.	.	.	.
.	.	16GG/	.	.	.	.	.	.	.	.	.	.	8G\J	.	.	.	.	.	.	8G/	-dis	.	.	.	.
*	*	*	*	*	*^	*	*	*	*	*	*	*	*	*	*	*	*	*	*	*	*	*	*	*	*
.	.	16GG/	.	16G/ 16g/	16g/	16g\	.	.	.	.	.	.	.	.	.	.	.	.	.	.	.	.	.	.	.	.
.	.	16GG/	.	4G/ 4g/	4g/	4g\	.	.	.	.	.	.	.	4.G\	.	.	.	.	.	.	4.G/	me	.	.	.	.
.	.	16GG/	.	.	.	.	.	.	.	.	.	.	.	.	.	.	.	.	.	.	.	.	.	.	.	.
!LO:SIC:v:s=8BB	!	!	!	!	!	!	!	!	!	!	!	!	!	!	!	!	!	!	!	!	!	!	!	!	!	!
8BB#X/	.	16GG/	.	.	.	.	.	8BBn/L	.	.	.	8d\	.	.	.	8d\L	.	8BBn/	-dis	.	.	.	.	8d\	-dis	.
.	.	16GG/	.	.	.	.	.	.	.	.	.	.	.	.	.	.	.	.	.	.	.	.	.	.	.	.
8C/L	.	16GG/	.	4r	4r	4ryy	.	8C/	.	8GL/	.	[4e-\	.	.	.	8e-\	.	8C/	me	.	.	.	.	8e-\	me	.
.	.	16GG/	.	.	.	.	.	.	.	.	.	.	.	.	.	.	.	.	.	.	.	.	.	.	.	.
8E-\J	.	16GG/	.	.	.	.	.	8E-\J	.	8c\J	.	.	.	8c\	.	8e-\J	.	8E-\	se-	.	8c\	se-	.	8e-\	se-	.
.	.	16GG/JJ	.	.	.	.	.	.	.	.	.	.	.	.	.	.	.	.	.	.	.	.	.	.	.	.
*	*	*	*	*	*v	*v	*	*	*	*	*	*	*	*	*	*	*	*	*	*	*	*	*	*	*	*
=128	=128	=128	=128	=128	=128	=128	=128	=128	=128	=128	=128	=128	=128	=128	=128	=128	=128	=128	=128	=128	=128	=128	=128	=128	=128
4G\	.	2GG/	.	2G/ 2g/	2.r	.	2G\	.	8c\L	.	8e-\L]	.	8c\L	.	8e-\L	.	4G\	-que-	.	8c\L	-que-	.	8e-\L	-que-	.
.	.	.	.	.	.	.	.	.	8Bn\J	.	8d\J	.	8Bn\J	.	8d\J	.	.	.	.	8Bn\J	.	.	8d\J	.	.
4G\	.	.	.	.	.	.	.	.	4B\	.	4d\	.	4B\	.	4d\	.	4G\	-stra,	.	4B\	-stra,	.	4d\	-stra,	.
8F#X\L	.	4r	.	4r	.	.	4F#X\	.	4An\	.	4d\	.	8An\L	.	8d\L	.	8F#X\	sta-	.	8An\	sta-	.	8d\	sta-	.
8F#\J	.	.	.	.	.	.	.	.	.	.	.	.	8A\J	.	8d\J	>	8F#\	-tu-	.	8A\	-tu-	.	8d\	-tu-	.
=129	=129	=129	=129	=129	=129	=129	=129	=129	=129	=129	=129	=129	=129	=129	=129	=129	=129	=129	=129	=129	=129	=129	=129	=129	=129
2G\	.	2.r	.	2.r	2.r	.	2G\	.	2B-X\	.	2d\	>	2B-X\	.	2d\	.	2G\	-ens	.	2B-X\	-ens	.	2d\	-ens	.
!LO:SIC:v::s=4F	!LO:HP:b	!	!	!	!	!	!	!	!	!	!	!	!	!	!	!	!	!	!	!	!	!	!	!	!
4F#X\	>	.	.	.	.	.	4Fn\	.	4An\	.	4d\	.	4An\	.	4d\	.	4Fn\	in	.	4An\	in	.	4d\	in	>
=130	=130	=130	=130	=130	=130	=130	=130	=130	=130	=130	=130	=130	=130	=130	=130	=130	=130	=130	=130	=130	=130	=130	=130	=130	=130
2E-\	.	2.r	.	2.r	2.r	.	2.E-\	.	2.G/	.	2d\	.	2G\	.	2d\	.	2E-\	par-	.	2G/	par-	.	2d\	par-	.
.	.	.	.	.	.	.	.	.	.	.	.	]	.	.	.	.	.	.	.	.	.	.	.	.	.
4E-\	.	.	.	.	.	.	.	.	.	.	4c#X\	.	4G\	.	4c#X\	]	4E-\	-te	.	4G/	-te	.	4c#X\	-te	.
=131	=131	=131	=131	=131	=131	=131	=131	=131	=131	=131	=131	=131	=131	=131	=131	=131	=131	=131	=131	=131	=131	=131	=131	=131	=131
2.D\	]]	2.r	.	2.r	2.r	.	2D/	]	2F#X/	]	2d\	.	2.F#X\ 2.An\	.	2.d\	.	2.D/	dex-	.	2.F#X/ 2.An/	dex-	.	2.d\	dex-	]]
.	.	.	.	.	.	.	4r	.	4r	.	4r	.	.	.	.	.	.	.	.	.	.	.	.	.	.
=132	=132	=132	=132	=132	=132	=132	=132	=132	=132	=132	=132	=132	=132	=132	=132	=132	=132	=132	=132	=132	=132	=132	=132	=132	=132
!!pagebreak:original
!	!	!LO:LB:g=original	!	!LO:LB:g=original	!LO:LB:g=original	!	!LO:LB:g=original	!	!LO:LB:g=original	!	!LO:LB:g=original	!	!LO:LB:g=original	!	!LO:LB:g=original	!	!LO:LB:g=original	!	!	!LO:LB:g=original	!	!	!LO:LB:g=original	!	!
2D\	]	2.r	.	2.r	2.r	.	2.r	.	2.r	.	2.r	.	2F#X\ 2An\	.	2d\	.	2D\	-tra,	.	2F#X/ 2An/	-tra	.	2d\	-tra	]
4r	.	.	.	.	.	.	.	.	.	.	.	.	4r	.	4r	ff	8.d\	Con-	.	8.d\	Con-	.	8.d\	Con-	ff
.	.	.	.	.	.	.	.	.	.	.	.	.	.	.	.	.	16d\	-fu-	.	16d\	-fu-	.	16d\	-fu-	.
=133	=133	=133	=133	=133	=133	=133	=133	=133	=133	=133	=133	=133	=133	=133	=133	=133	=133	=133	=133	=133	=133	=133	=133	=133	=133
4r	.	2.r	.	2.r	2.r	.	2.r	.	2.r	.	2.r	.	4r	.	4r	.	4d\	-ta-	.	4d\	-ta-	.	4d\	-ta-	.
!LO:SIC:v=w źródle ćwierćnuta z kropką	!	!	!	!	!	!	!	!	!	!	!	!	!LO:SIC:v:s==4d	!	!	!	!	!	!	!	!	!	!	!	!
!LO:N:vis=4.	!	!	!	!	!	!	!	!	!	!	!	!	!	!	!	!	!	!	!	!	!	!	!	!	!
4d\	.	.	.	.	.	.	.	.	.	.	.	.	4e-\	.	4d\	.	4D/	-tis	.	4D/	-tis	.	4D/	-tis	.
!	!	!	!	!	!	!	!	!	!	!	!	!	!	!	!	!	!LO:SIC:s:v=8.e-	!	!	!	!	!	!	!	!
[4e-\	.	.	.	.	.	.	.	.	.	.	.	.	4e-\	.	[4e-\	.	8.d\	ma-	.	8.e-\	ma-	.	8.e-\	ma-	.
!	!	!	!	!	!	!	!	!	!	!	!	!	!	!	!	!	!LO:SIC:s:v=16e-	!	!	!	!	!	!	!	!
.	.	.	.	.	.	.	.	.	.	.	.	.	.	.	.	.	16d\	-le-	.	16e-\	-le-	.	16e-\	-le-	.
=134	=134	=134	=134	=134	=134	=134	=134	=134	=134	=134	=134	=134	=134	=134	=134	=134	=134	=134	=134	=134	=134	=134	=134	=134	=134
4e-\]	.	2.r	.	2.r	2.r	.	2.r	.	2.r	.	2.r	.	4e-\	.	4e-\]	.	4e-\	-dic-	.	4e-\	-dic-	.	4e-\	-dic-	.
4E-\	.	.	.	.	.	.	.	.	.	.	.	.	4E-\	.	4E-/	.	4E-\	-tis,	.	4E-/	-tis,	.	4E-/	-tis,	.
[4c\	.	.	.	.	.	.	.	.	.	.	.	.	[4c\	.	[4c\	.	8.c\	con-	.	8.c\	con-	.	8.c\	con-	.
.	.	.	.	.	.	.	.	.	.	.	.	.	.	.	.	.	16c\	-fu-	.	16c\	-fu-	.	16c\	-fu-	.
=135	=135	=135	=135	=135	=135	=135	=135	=135	=135	=135	=135	=135	=135	=135	=135	=135	=135	=135	=135	=135	=135	=135	=135	=135	=135
!	!	!	!LO:DY:b:rj	!	!	!LO:DY:b:rj	!	!	!	!	!	!	!	!	!	!	!	!	!	!	!	!	!	!	!
4c\]	.	16C/LL	ff	2.c/ [2.cc/	2.C/ [2.c/	ff	4r	.	4r	.	4r	.	4c\]	.	4c\]	.	4c\	-ta-	.	4c\	-ta-	.	4c\	-ta-	.
.	.	16C/	.	.	.	.	.	.	.	.	.	.	.	.	.	.	.	.	.	.	.	.	.	.	.
.	.	16C/	.	.	.	.	.	.	.	.	.	.	.	.	.	.	.	.	.	.	.	.	.	.	.
.	.	16C/	.	.	.	.	.	.	.	.	.	.	.	.	.	.	.	.	.	.	.	.	.	.	.
4C/	.	16C/	.	.	.	.	4r	.	4r	.	4r	.	4C/	.	4C/	.	4C/	-tis	.	4C/	-tis	.	4C/	-tis	.
.	.	16C/	.	.	.	.	.	.	.	.	.	.	.	.	.	.	.	.	.	.	.	.	.	.	.
.	.	16C/	.	.	.	.	.	.	.	.	.	.	.	.	.	.	.	.	.	.	.	.	.	.	.
.	.	16C/	.	.	.	.	.	.	.	.	.	.	.	.	.	.	.	.	.	.	.	.	.	.	.
!	!	!	!	!	!	!	!	!	!	!	!	!LO:DY:b	!	!	!	!	!	!	!	!	!	!	!	!	!
8.F#X\L	.	16C/	.	.	.	.	[4F#X\	.	[4An\	.	[4e-\	ff	8.An\L 8.c\	.	8.e-\L	.	8.F#X\	ma-	.	8.An\ 8.c\	ma-	.	8.e-\	ma-	.
.	.	16C/	.	.	.	.	.	.	.	.	.	.	.	.	.	.	.	.	.	.	.	.	.	.	.
.	.	16C/	.	.	.	.	.	.	.	.	.	.	.	.	.	.	.	.	.	.	.	.	.	.	.
16F#\Jk	.	16C/JJ	.	.	.	.	.	.	.	.	.	.	16A\Jk 16c\	.	16e-\Jk	.	16F#\	-le-	.	16A\ 16c\	-le-	.	16e-\	-le-	.
=136	=136	=136	=136	=136	=136	=136	=136	=136	=136	=136	=136	=136	=136	=136	=136	=136	=136	=136	=136	=136	=136	=136	=136	=136	=136
4F#X\	.	4C/	.	4c/ 4cc/]	4C/ 4c/]	.	4F#X\]	.	4An\]	.	4e-\]	.	4An\ 4c\	.	4e-\	.	4F#X\	-dic-	.	4An\ 4c\	-dic-	.	4e-\	-dic-	.
4F#\	.	4C/	.	4c/ 4cc/	4C/ 4c/	.	4F#\	.	4A\	.	4e-\	.	4A\ 4c\	.	4e-\	.	4F#\	-tis,	.	4A\ 4c\	-tis,	.	4e-\	-tis,	.
4r	.	4r	.	4r	4r	.	4r	.	4r	.	4r	.	4r	.	4r	.	4r	.	.	4r	.	.	4r	.	.
=137	=137	=137	=137	=137	=137	=137	=137	=137	=137	=137	=137	=137	=137	=137	=137	=137	=137	=137	=137	=137	=137	=137	=137	=137	=137
8.e-\L	.	2.r	.	2.r	4r	.	8r	.	8r	.	8r	.	8.e-\L	.	8.e-\L	.	8.e-\	flam-	.	8.e-\	flam-	.	8.e-\	flam-	.
.	.	.	.	.	.	.	8c\	.	8c\	.	8c\	.	.	.	.	.	.	.	.	.	.	.	.	.	.
!	!	!	!	!	!	!	!	!	!	!	!	!	!	!	!	!	!	!	!	!	!	!	!LO:SIC:v="m" z daszkiem.może chodzić o podwójne m	!	!
16c\Jk	.	.	.	.	.	.	.	.	.	.	.	.	16c\Jk	.	16c\Jk	.	16c\	-mis	.	16c\	-m(i)s	.	16c\	-(m)is	.
8.e-\L	.	.	.	.	4r	.	8r	.	8r	.	8r	.	8.e-\L	.	8.e-\L	.	8.e-\	à-	.	8.e-\	à-	.	8.e-\	à-	.
.	.	.	.	.	.	.	8An\	.	8An\	.	8An\	.	.	.	.	.	.	.	.	.	.	.	.	.	.
16An\Jk	.	.	.	.	.	.	.	.	.	.	.	.	16An\Jk	.	16An\Jk	.	16An\	-cri-	.	16An\	-cri-	.	16An\	-cri-	.
8.e-\L	.	.	.	.	8r	.	8r	.	8r	.	8r	.	8.e-\L	.	8.e-\L	.	8.e-\	-bus	.	8.e-\	-bus	.	8.e-\	-bus	.
*	*	*	*	*	*^	*	*	*	*	*	*	*	*	*	*	*	*	*	*	*	*	*	*	*	*
.	.	.	.	.	8f#X/	8f#\	.	8F#X\	.	8F#X/	.	8F#X/	.	.	.	.	.	.	.	.	.	.	.	.	.	.
!	!	!	!	!	!	!	!	!	!	!	!	!	!	!	!	!LO:TX:t=P:problem=mixed beam	!	!	!	!	!	!	!	!	!	!
16F#X\Jk	.	.	.	.	.	.	.	.	.	.	.	.	.	16F#X\Jk	.	16F#X/Jk	.	16F#X\	ad-	.	16F#X/	ad-	.	16F#X/	ad-	.
=138	=138	=138	=138	=138	=138	=138	=138	=138	=138	=138	=138	=138	=138	=138	=138	=138	=138	=138	=138	=138	=138	=138	=138	=138	=138	=138
8.G\L	.	4r	.	4r	8.g/L	8.g\L	.	8.G\L	.	8.G/L	.	8.G/L	.	8.G\L	.	8.G/L	.	8.G\L	-dic-	.	8.G/L	-dic-	.	8.G/L	-dic-	.
16A-X\Jk	.	.	.	.	16a-X/Jk	16a-\Jk	.	16A-X\Jk	.	16A-\Jk	.	16A-X\Jk	.	16A-X\Jk	.	16A-X\J	.	16A-X\Jk	.	.	16A-X\Jk	.	.	16A-X\Jk	.	.
4A-\	.	4r	.	4r	4a-/	4a-\	.	4A-\	.	4A-/	.	4A-/	.	4A-\	.	4A-/	.	4A-\	-tus	.	4A-/	-tus	.	4A-/	-tus	.
4r;	.	4r;	.	4r;	4r;	4r	.	4r;	.	4r;	.	4r;	.	4r;	.	4r;	.	4r;	.	.	4r;	.	.	4r;	.	.
*	*	*	*	*	*v	*v	*	*	*	*	*	*	*	*	*	*	*	*	*	*	*	*	*	*	*	*
=139	=139	=139	=139	=139	=139	=139	=139	=139	=139	=139	=139	=139	=139	=139	=139	=139	=139	=139	=139	=139	=139	=139	=139	=139	=139
!	!	!	!	!	!	!	!	!	!	!	!	!	!	!	!	!	!	!	!	!	!	!	!LO:TX:a:i:t=dolce	!	!
2.r	.	2.r	.	2.r	2.r	.	2.r	.	2.r	.	2.r	.	2.r	.	2.r	.	4r	.	.	4r	.	.	[2.c\	Vo-	.
.	.	.	.	.	.	.	.	.	.	.	.	.	.	.	.	.	[2En\	Vo-	.	[2G/	Vo-	.	.	.	.
=140	=140	=140	=140	=140	=140	=140	=140	=140	=140	=140	=140	=140	=140	=140	=140	=140	=140	=140	=140	=140	=140	=140	=140	=140	=140
!!pagebreak:original
2.r	.	2.r	.	2.r	2.r	.	2.r	.	2.r	.	2.r	.	2.r	.	2.r	.	2E\]	.	.	2G/]	.	.	2c\]	.	.
.	.	.	.	.	.	.	.	.	.	.	.	.	.	.	.	.	4G\	-ca	.	4Bn\	-ca	.	4d\	-ca	.
=141	=141	=141	=141	=141	=141	=141	=141	=141	=141	=141	=141	=141	=141	=141	=141	=141	=141	=141	=141	=141	=141	=141	=141	=141	=141
2.r	.	2.r	.	2.r	2.r	.	2.r	.	2.r	.	2.r	.	2.r	.	2.r	.	2c\	me	.	2c\	me	.	2en\	me	.
.	.	.	.	.	.	.	.	.	.	.	.	.	.	.	.	.	8An\L	cum	.	8.c\L	cum	.	(>4e\	cum	.
.	.	.	.	.	.	.	.	.	.	.	.	.	.	.	.	.	8G\J	.	.	.	.	.	.	.	.
.	.	.	.	.	.	.	.	.	.	.	.	.	.	.	.	.	.	.	.	16Bn\Jk	.	.	.	.	.
=142	=142	=142	=142	=142	=142	=142	=142	=142	=142	=142	=142	=142	=142	=142	=142	=142	=142	=142	=142	=142	=142	=142	=142	=142	=142
2.r	.	2.r	.	2.r	2.r	.	2.r	.	2.r	.	2.r	.	2.r	.	2.r	.	(>4F\	be-	.	4An\	be-	.	8en\L	be-	.
.	.	.	.	.	.	.	.	.	.	.	.	.	.	.	.	.	.	.	.	.	.	.	8d\J)	.	.
.	.	.	.	.	.	.	.	.	.	.	.	.	.	.	.	.	4En\)	.	.	4G/	-ne-	.	4c\	-ne-	.
.	.	.	.	.	.	.	.	.	.	.	.	.	.	.	.	.	4D\	-ne-	.	4F/	.	.	4Bn\	.	.
=143	=143	=143	=143	=143	=143	=143	=143	=143	=143	=143	=143	=143	=143	=143	=143	=143	=143	=143	=143	=143	=143	=143	=143	=143	=143
!	!	!	!LO:DY:b:rj	!	!	!	!	!	!	!	!	!	!	!	!	!	!	!	!	!	!	!	!	!	!
4r	.	16GG/LL	p	2.G/ 2.g/	2.r	.	4r	.	4r	.	4r	.	4r	.	4r	.	8C/L	-dic-	.	8En/L	-dic-	.	(>8c\L	-dic-	.
.	.	16GG/	.	.	.	.	.	.	.	.	.	.	.	.	.	.	.	.	.	.	.	.	.	.	.
.	.	16GG/	.	.	.	.	.	.	.	.	.	.	.	.	.	.	8BBn/J	.	.	8F/J	.	.	8d\J	.	.
.	.	16GG/	.	.	.	.	.	.	.	.	.	.	.	.	.	.	.	.	.	.	.	.	.	.	.
4r	.	16GG/	.	.	.	.	4r	.	4r	.	4r	.	4r	.	4r	.	4BB/	-tis	.	4G/	-tis	.	4d\)	-tis	.
.	.	16GG/	.	.	.	.	.	.	.	.	.	.	.	.	.	.	.	.	.	.	.	.	.	.	.
.	.	16GG/	.	.	.	.	.	.	.	.	.	.	.	.	.	.	.	.	.	.	.	.	.	.	.
.	.	16GG/	.	.	.	.	.	.	.	.	.	.	.	.	.	.	.	.	.	.	.	.	.	.	.
!	!LO:DY:b	!	!	!	!	!	!	!	!	!	!	!	!	!	!	!	!	!	!	!	!	!	!	!	!
8.BBn/L	f	16GG/	.	.	.	.	4BBn/	.	4G/	.	4d\	.	8.G\L	.	8.d\L	.	8.BB/	o-	.	8.G/	o-	.	8.d\	o-	mf
.	.	16GG/	.	.	.	.	.	.	.	.	.	.	.	.	.	.	.	.	.	.	.	.	.	.	.
.	.	16GG/	.	.	.	.	.	.	.	.	.	.	.	.	.	.	.	.	.	.	.	.	.	.	.
16BB/Jk	.	16GG/JJ	.	.	.	.	.	.	.	.	.	.	16G\Jk	.	16d\Jk	.	16BB/	-ro	.	16G/	-ro	.	16d\	-ro	.
=144	=144	=144	=144	=144	=144	=144	=144	=144	=144	=144	=144	=144	=144	=144	=144	=144	=144	=144	=144	=144	=144	=144	=144	=144	=144
!LO:LB:g=original	!	!LO:LB:g=original	!	!LO:LB:g=original	!LO:LB:g=original	!	!	!LO:LB:g=original	!	!LO:LB:g=original	!	!LO:LB:g=original	!	!LO:LB:g=original	!LO:LB:g=original	!LO:LB:g=original	!	!LO:LB:g=original	!	!	!LO:LB:g=original	!	!	!LO:LB:g=original	!
!	!	!	!	!	!	!	!	!	!	!	!LO:SIC:v= w źródle brak kropki przy ćwierćnucie	!	!	!	!LO:SIC:v=w źródle brak kropki przy ćwierćnucie	!	!	!	!	!	!	!	!	!	!
*	*	*	*	*	*^	*	*	*	*	*	*	*	*	*	*	*	*	*	*	*	*	*	*	*	*
!	!	!	!	!	!	!	!	!	!	!	!	!LO:N:vis=4	!	!	!	!LO:N:vis=4	!	!	!	!	!	!	!	!	!	!
4.C/	.	16GG/LL	.	8.r	8.r	8.ryy	.	4.C/	.	2.G/	.	4.e-\	.	8G\L	.	4.e-\	.	4.C/	sup-	.	8G/	sup-	.	4.e-\	sup-	.
.	.	16GG/	.	.	.	.	.	.	.	.	.	.	.	.	.	.	.	.	.	.	.	.	.	.	.	.
.	.	16GG/	.	.	.	.	.	.	.	.	.	.	.	8G\J	.	.	.	.	.	.	8G/	-plex	.	.	.	.
.	.	16GG/	.	16G/ 16g/	16g/	16g\	.	.	.	.	.	.	.	.	.	.	.	.	.	.	.	.	.	.	.	.
.	.	16GG/	.	4G/ 4g/	4g/	4g\	.	.	.	.	.	.	.	4.G\	.	.	.	.	.	.	4.G/	et	.	.	.	.
.	.	16GG/	.	.	.	.	.	.	.	.	.	.	.	.	.	.	.	.	.	.	.	.	.	.	.	.
8BBn/L	.	16GG/	.	.	.	.	.	8BBn/	.	.	.	8d\	.	.	.	8d\L	.	8BBn/	-plex	.	.	.	.	8d\	-plex	.
.	.	16GG/	.	.	.	.	.	.	.	.	.	.	.	.	.	.	.	.	.	.	.	.	.	.	.	.
8C/	.	16GG/	.	4r	4r	4ryy	.	(<4C/	.	.	.	[4e-\	.	.	.	8e-\	.	8C/	et	.	.	.	.	8e-\	et	.
.	.	16GG/	.	.	.	.	.	.	.	.	.	.	.	.	.	.	.	.	.	.	.	.	.	.	.	.
8C/J	.	16GG/	.	.	.	.	.	.	.	.	.	.	.	8G\	.	(>8e-\J	.	8C/	ac-	.	8G/	ac-	.	[8e-\	ac-	.
.	.	16GG/JJ	.	.	.	.	.	.	.	.	.	.	.	.	.	.	.	.	.	.	.	.	.	.	.	.
*	*	*	*	*	*v	*v	*	*	*	*	*	*	*	*	*	*	*	*	*	*	*	*	*	*	*	*
=145	=145	=145	=145	=145	=145	=145	=145	=145	=145	=145	=145	=145	=145	=145	=145	=145	=145	=145	=145	=145	=145	=145	=145	=145	=145
8C/L	.	16GG/LL	.	2.G/ 2.g/	2.r	.	8C/L	.	2G/	.	8e-\L]	.	4G\	.	8e-\L	.	8C/L	-cli-	.	4G/	-cli-	.	8e-\L]	-cli-	<
.	.	16GG/	.	.	.	.	.	.	.	.	.	.	.	.	.	.	.	.	.	.	.	.	.	.	.
8BBn/J	.	16GG/	.	.	.	.	8BBn/J)	.	.	.	8d\J	.	.	.	8d\J)	.	8BBn/J	.	.	.	.	.	8d\J	.	.
.	.	16GG/	.	.	.	.	.	.	.	.	.	.	.	.	.	.	.	.	.	.	.	.	.	.	.
4BB/	.	16GG/	.	.	.	.	4BB/	.	.	.	4d\	.	4G\	.	4d\	.	4BB/	-nis	.	4G/	-nis,	.	4d\	-nis	.
.	.	16GG/	.	.	.	.	.	.	.	.	.	.	.	.	.	.	.	.	.	.	.	.	.	.	.
.	.	16GG/	.	.	.	.	.	.	.	.	.	.	.	.	.	.	.	.	.	.	.	.	.	.	.
.	.	16GG/	.	.	.	.	.	.	.	.	.	.	.	.	.	.	.	.	.	.	.	.	.	.	.
8BB/L	.	16GG/	.	.	.	.	4BB/	.	4G/	.	4d\	.	8G\L	.	8d\L	.	8BB/	Cor-	.	8G/	Cor-	.	8d\	Cor-	.
.	.	16GG/	.	.	.	.	.	.	.	.	.	.	.	.	.	.	.	.	.	.	.	.	.	.	.
!	!LO:HP:b	!	!	!	!	!	!	!	!	!	!	!	!	!	!	!	!	!	!	!	!	!	!	!	!
8BB/J	<	16GG/	.	.	.	.	.	.	.	.	.	.	8G\J	.	8d\J	<	8BB/	-con	.	8G/	-con	.	8d\	-con	.
.	.	16GG/JJ	.	.	.	.	.	.	.	.	.	.	.	.	.	.	.	.	.	.	.	.	.	.	.
=146	=146	=146	=146	=146	=146	=146	=146	=146	=146	=146	=146	=146	=146	=146	=146	=146	=146	=146	=146	=146	=146	=146	=146	=146	=146
*	*	*	*	*	*^	*	*	*	*	*	*	*	*	*	*	*	*	*	*	*	*	*	*	*	*
!	!	!	!	!	!	!	!	!	!	!	!	!	!	!	!	!LO:N:vis=4	!	!	!	!	!	!	!	!	!	!
4.C/	.	16GG/LL	.	8.r	8.r	8.ryy	.	4.C/	.	2G/	.	4.e-\	.	8G\L	.	4.e-\	[	4.C/	-tri-	.	8G/	-tri-	.	4.e-\	-tri-	.
.	.	16GG/	.	.	.	.	.	.	.	.	.	.	.	.	.	.	.	.	.	.	.	.	.	.	.	.
.	.	16GG/	.	.	.	.	.	.	.	.	.	.	.	8G\J	.	.	.	.	.	.	8G/	-tum	.	.	.	.
.	.	16GG/	.	16G/ 16g/	16g/	16g\	.	.	.	.	.	.	.	.	.	.	.	.	.	.	.	.	.	.	.	.
.	.	16GG/	.	4G/ 4g/	4g/	4g\	.	.	.	.	.	.	.	4.G\	.	.	.	.	.	.	4.G/	qua-	.	.	.	.
.	.	16GG/	.	.	.	.	.	.	.	.	.	.	.	.	.	.	.	.	.	.	.	.	.	.	.	.
8BBn/L	.	16GG/	.	.	.	.	.	8BBn/L	.	.	.	8d\	.	.	.	8d\L	.	8BBn/	-tum	.	.	.	.	8d\	-tum	[
.	.	16GG/	.	.	.	.	.	.	.	.	.	.	.	.	.	.	.	.	.	.	.	.	.	.	.	.
8C/	.	16GG/	.	4r	4r	4ryy	.	8C/	.	8G/L	.	[4e-\	.	.	.	8e-\	.	8C/	qua-	.	.	.	.	8.e-\	qua-	.
.	.	16GG/	.	.	.	.	.	.	.	.	.	.	.	.	.	.	.	.	.	.	.	.	.	.	.	.
8E-\J	[[	16GG/	.	.	.	.	.	8E-\J	.	8c\J	.	.	.	8c\	.	8e-\J	.	8E-/	-si	.	8c\	-si	.	.	.	.
.	.	16GG/JJ	.	.	.	.	.	.	.	.	.	.	.	.	.	.	.	.	.	.	.	.	.	16e-\	-si	.
*	*	*	*	*	*v	*v	*	*	*	*	*	*	*	*	*	*	*	*	*	*	*	*	*	*	*	*
=147	=147	=147	=147	=147	=147	=147	=147	=147	=147	=147	=147	=147	=147	=147	=147	=147	=147	=147	=147	=147	=147	=147	=147	=147	=147
4G\	[	2GG/	.	2G/ 2g/	4r	.	4G\	.	8c\L	.	8e-\L]	.	8c\L	.	8e-\L	.	4G\	ci-	.	8c\L	cinis	.	8e-\L	ci-	.
.	.	.	.	.	.	.	.	.	8Bn\J	.	8d\J	.	8Bn\J	.	8d\J	.	.	.	.	8Bn\J	.	.	8d\J	.	.
4G\	.	.	.	.	4r	.	4G\	.	4B\	.	4d\	.	4B\	.	4d\	.	4G\	-nis	.	4B\	.	.	4d\	-nis	.
*	*	*	*	*	*^	*	*	*	*	*	*	*	*	*	*	*	*	*	*	*	*	*	*	*	*
!	!LO:DY:b	!	!	!	!	!	!	!	!	!	!	!	!	!	!	!	!	!	!	!	!	!	!	!	!	!
8.BBn/L	f	4r	.	8.G/L 8.g/	8.g/L	8.g\L	.	4BBn/	.	8.G/L	.	4d\	.	8.G\L	.	8.d\L	.	8.BBn/	Ge-	.	8.G/	Ge-	.	8.d\	Ge-	f
16BB/Jk	.	.	.	16G/Jk 16g/	16g/Jk	16g\Jk	.	.	.	16F/Jk	.	.	.	16F\Jk	.	16d\Jk	.	16BB/	-re	.	16F/	-re	.	16d\	-re	.
*	*	*	*	*	*v	*v	*	*	*	*	*	*	*	*	*	*	*	*	*	*	*	*	*	*	*	*
=148	=148	=148	=148	=148	=148	=148	=148	=148	=148	=148	=148	=148	=148	=148	=148	=148	=148	=148	=148	=148	=148	=148	=148	=148	=148
4.C/	.	2.r	.	4G/ 4g/	4c/ 4g/	.	4.C/	.	4.E-/	.	4.e-\	.	4.E-\	.	4.e-\	.	4.C/	cu-	.	4.E-/	cu-	.	4.e-\	cu-	.
.	.	.	.	4r	4r	.	.	.	.	.	.	.	.	.	.	.	.	.	.	.	.	.	.	.	.
8DL/	.	.	.	.	.	.	8DL/	.	8F/L	.	8d\L	.	8F\L	.	8d\L	.	8D/	-ram	.	8F/	-ram	.	8d\	-ram	.
8.E-\	.	.	.	4r	4r	.	8.E-\	.	8.G/	.	8.c\	.	8.G\	.	8.c\	.	8.E-\	me-	.	8.G/	mei	.	8.c\	mei	.
16F\Jk	.	.	.	.	.	.	16F\Jk	.	16A-\Jk	.	16d\Jk	.	16A-\Jk	.	16d\Jk	.	16F\	-i	.	16A-/	.	.	16d\	.	.
=149	=149	=149	=149	=149	=149	=149	=149	=149	=149	=149	=149	=149	=149	=149	=149	=149	=149	=149	=149	=149	=149	=149	=149	=149	=149
2G\	.	2.r	.	2.r	2.r	.	2G\	.	2c\	.	2e-\	.	2c\	.	2e-\	.	2G\	fi-	.	2c\	fi-	.	2e-\	fi-	.
8.G\L	.	.	.	.	.	.	8.G\L	.	8.Bn\L	.	8.d\L	.	8.Bn\L	.	8.d\L	.	8.G\L	.	.	8.Bn\L	.	.	8.d\L	.	.
16A-\Jk	.	.	.	.	.	.	16A-\Jk	.	16c\Jk	.	16c\Jk	.	16c\Jk	.	16c\Jk	.	16A-\Jk	.	.	16c\Jk	.	.	16c\Jk	.	.
=150	=150	=150	=150	=150	=150	=150	=150	=150	=150	=150	=150	=150	=150	=150	=150	=150	=150	=150	=150	=150	=150	=150	=150	=150	=150
!!pagebreak:original
2A-\;	.	2r;	.	2c/;	2c/;	.	2A-\;	.	2c\;	.	2c\;	.	2c\;	.	2c\;	.	2A-\;	-nis	.	2c\;	-nis	.	2c\;	-nis,	.
*	*	*	*	*	*^	*	*	*	*	*	*	*	*	*	*	*	*	*	*	*	*	*	*	*	*
8.BBn/L	.	4r	.	8.G/L 8.g/	8.g/L	8.g\L	.	4BBn/	.	8.G/L	.	4d\	.	8.G\L	.	8.d\L	.	8.BBn/	Ge-	.	8.G/	Ge-	.	8.d\	Ge-	.
16BB/Jk	.	.	.	16G/Jk 16g/	16g/Jk	16g\Jk	.	.	.	16F/Jk	.	.	.	16F\Jk	.	16d\Jk	.	16BB/	-re	.	16F/	-re	.	16d\	-re	.
*	*	*	*	*	*v	*v	*	*	*	*	*	*	*	*	*	*	*	*	*	*	*	*	*	*	*	*
=151	=151	=151	=151	=151	=151	=151	=151	=151	=151	=151	=151	=151	=151	=151	=151	=151	=151	=151	=151	=151	=151	=151	=151	=151	=151
4.C/	.	2.r	.	4G/ 4g/	4c/ 4g/	.	4.C/	.	4.E-/	.	4.e-\	.	4.E-\	.	4.e-\	.	4.C/	cu-	.	4.E-/	cu-	.	4.e-\	cu-	.
.	.	.	.	4r	4r	.	.	.	.	.	.	.	.	.	.	.	.	.	.	.	.	.	.	.	.
8DL/	.	.	.	.	.	.	8DL/	.	8F/L	.	8d\L	.	8F\L	.	8d\L	.	8D/	-ram	.	8F/	-ram	.	8d\	-ram	.
8.E-\	.	.	.	4r	4r	.	8.E-\	.	8.G/	.	8.c\	.	8.G\	.	8.c\	.	8.E-/	me-	.	8.G/	me-	.	8.c\	mei	.
16F\Jk	.	.	.	.	.	.	16F\Jk	.	16A-\Jk	.	16d\Jk	.	16A-\Jk	.	16d\Jk	.	16F/	-i	.	16A-/	-i	.	16d\	.	.
=152	=152	=152	=152	=152	=152	=152	=152	=152	=152	=152	=152	=152	=152	=152	=152	=152	=152	=152	=152	=152	=152	=152	=152	=152	=152
2.G\	.	16GG/LL	.	2.G/ 2.g/	[2.g/	.	2.G\	.	[2.c\	.	2.e-\	.	[2.c\	.	2.e-\	.	[2.G\	fi-	.	[2.c\	fi-	.	2.e-\	fi-	.
.	.	16GG/	.	.	.	.	.	.	.	.	.	.	.	.	.	.	.	.	.	.	.	.	.	.	.
.	.	16GG/	.	.	.	.	.	.	.	.	.	.	.	.	.	.	.	.	.	.	.	.	.	.	.
.	.	16GG/	.	.	.	.	.	.	.	.	.	.	.	.	.	.	.	.	.	.	.	.	.	.	.
.	.	16GG/	.	.	.	.	.	.	.	.	.	.	.	.	.	.	.	.	.	.	.	.	.	.	.
.	.	16GG/	.	.	.	.	.	.	.	.	.	.	.	.	.	.	.	.	.	.	.	.	.	.	.
.	.	16GG/	.	.	.	.	.	.	.	.	.	.	.	.	.	.	.	.	.	.	.	.	.	.	.
.	.	16GG/	.	.	.	.	.	.	.	.	.	.	.	.	.	.	.	.	.	.	.	.	.	.	.
.	.	16GG/	.	.	.	.	.	.	.	.	.	.	.	.	.	.	.	.	.	.	.	.	.	.	.
.	.	16GG/	.	.	.	.	.	.	.	.	.	.	.	.	.	.	.	.	.	.	.	.	.	.	.
.	.	16GG/	.	.	.	.	.	.	.	.	.	.	.	.	.	.	.	.	.	.	.	.	.	.	.
.	.	16GG/JJ	.	.	.	.	.	.	.	.	.	.	.	.	.	.	.	.	.	.	.	.	.	.	.
=153	=153	=153	=153	=153	=153	=153	=153	=153	=153	=153	=153	=153	=153	=153	=153	=153	=153	=153	=153	=153	=153	=153	=153	=153	=153
2.GG/	.	16GG/LL	.	2.G/ 2.g/	2.g/]	.	2.GG/	.	4c\]	.	2.d\	.	4c\]	.	2.d\	.	2.G\]	.	.	4c\]	.	.	2.d\	.	.
.	.	16GG/	.	.	.	.	.	.	.	.	.	.	.	.	.	.	.	.	.	.	.	.	.	.	.
.	.	16GG/	.	.	.	.	.	.	.	.	.	.	.	.	.	.	.	.	.	.	.	.	.	.	.
.	.	16GG/	.	.	.	.	.	.	.	.	.	.	.	.	.	.	.	.	.	.	.	.	.	.	.
!	!	!	!	!	!	!	!	!	!LO:SIC:v:s=8B	!	!	!	!	!	!	!	!	!	!	!	!	!	!	!	!
.	.	16GG/	.	.	.	.	.	.	8B-\L	.	.	.	8Bn\L	.	.	.	.	.	.	8Bn\L	.	.	.	.	.
.	.	16GG/	.	.	.	.	.	.	.	.	.	.	.	.	.	.	.	.	.	.	.	.	.	.	.
.	.	16GG/	.	.	.	.	.	.	8An\J	.	.	.	8An\J	.	.	.	.	.	.	8An\J	.	.	.	.	.
.	.	16GG/	.	.	.	.	.	.	.	.	.	.	.	.	.	.	.	.	.	.	.	.	.	.	.
!	!	!	!	!	!	!	!	!	!LO:SIC:v::s=4B	!	!	!	!	!	!	!	!	!	!	!	!	!	!	!	!
.	.	16GG/	.	.	.	.	.	.	4B-\	.	.	.	4B\	.	.	.	.	.	.	4B\	.	.	.	.	.
.	.	16GG/	.	.	.	.	.	.	.	.	.	.	.	.	.	.	.	.	.	.	.	.	.	.	.
.	.	16GG/	.	.	.	.	.	.	.	.	.	.	.	.	.	.	.	.	.	.	.	.	.	.	.
.	.	16GG/JJ	.	.	.	.	.	.	.	.	.	.	.	.	.	.	.	.	.	.	.	.	.	.	.
=154	=154	=154	=154	=154	=154	=154	=154	=154	=154	=154	=154	=154	=154	=154	=154	=154	=154	=154	=154	=154	=154	=154	=154	=154	=154
2C/	.	2C/	.	2c/ 2g/	2c/ 2g/	.	2C/	.	2c\	.	2c\	.	2c\	.	2c\	.	2c\	-nis	.	2c\	-nis	.	2c\	-nis	.
4r	.	4r	.	4r	4r	.	4r	.	4r	.	4r	.	4r	.	4r	.	4r	.	.	4r	.	.	4r	.	.
==	==	==	==	==	==	==	==	==	==	==	==	==	==	==	==	==	==	==	==	==	==	==	==	==	==
*-	*-	*-	*-	*-	*-	*-	*-	*-	*-	*-	*-	*-	*-	*-	*-	*-	*-	*-	*-	*-	*-	*-	*-	*-	*-
!!!system-decoration: [(s1,s2,s3,s4,s5)][(s6,s7,s8)][(s9,s10,s11,s12)]
!!!RDF**kern: > = above
!!!RDF**kern: < = below
!!!ENC: Andrzej Borzym
!!!END: 2020-02-10
!!!ENC: Leszek Kubiak
!!!END: 2020-03-10
!!!YEC: Copyright 2022 Narodowy Instytut Fryderyka Chopina (https://polishscores.org)
!!!YEM: License CC-BY-4.0 (https://creativecommons.org/licenses/by/4.0)
